!!!!SEGMENT: pl-cz--iii-790_gotschalk-filip--offertorium.krn
!!!cenid: 18xx:164
!!!COM: Gotschalk, Filip
!!!COM-rismID: pe30020320
!!!CDT: 1760-1809
!!!CNT:
!!!OTL: Offertorium
!!!PDT:
!!!AGN: Sacred
!!!SMS-siglum: PL-CZ
!!!SMS-shelfmark: III-790
!!!SMS-shelfwork: W
!!!NIFC-rismSourceID: 300000377
!!!NIFC-rismChildID: 300000377
!!!NIFC-islandoraID: pl-cz:40857
!!!URL-pdf-islandora: https://repozytorium.nifc.pl/islandora/object/pl-cz%3A40857/datastream/PDF/view
!!!URL-scan: https://polish.musicsources.pl/pl/lokalizacje/galeria/rekopisy/7006/1 @EN{Scan on Polish Music Sources Website} @PL{Skany w portalu Dziedzictwo Muzyki Polskiej w otwartym dostępie}
!!!ONB-nifc:
!!!AIN: 1 alto 2 empty 2 oboe 1 organ 1 tenor 2 violn 1 vox
!!!key:
**kern	**fba	**kern	**dynam	**kern	**kern	**text	**kern	**text	**kern	**text	**kern	**text	**kern	**dynam	**kern	**kern
*part10	*part10	*part9	*part9	*part8	*part7	*part7	*part6	*part6	*part5	*part5	*part4	*part4	*part3	*part3	*part2	*part1
*staff10	*	*staff9	*	*staff8	*staff7	*staff7	*staff6	*staff6	*staff5	*staff5	*staff4	*staff4	*staff3	*	*staff2	*staff1
*Iorgan	*	*Ivioln	*	*Ivioln	*Iempty	*	*Itenor	*	*Ialto	*	*Ivox	*	*Iempty	*	*Ioboe	*Ioboe
*I"Organo.	*	*I"Violino Secondo.	*	*I"Violino Primo.	*I"Basſo.	*	*I"Tenore.	*	*I"Alto.	*	*I"Canto.	*	*I"Cornu Primo in F.	*	*I"Oboe Secondo.	*I"Oboe Primo.
*I'org	*	*I'vl 2	*	*I'vl 1	*I'B	*	*I'T	*	*I'A	*	*I'S	*	*I'cor 1 in F	*	*I'ob 2	*I'ob 1
*clefF4	*	*clefG2	*	*clefG2	*clefF4	*	*clefC4	*	*clefC3	*	*clefC1	*	*clefG2	*	*clefG2	*clefG2
*	*	*	*	*	*	*	*	*	*	*	*	*	*ITrd4c7	*	*	*
*k[b-]	*	*k[b-]	*	*k[b-]	*k[b-]	*	*k[b-]	*	*k[b-]	*	*k[b-]	*	*k[b-]	*	*k[b-]	*k[b-]
*F:	*	*F:	*	*F:	*F:	*	*F:	*	*F:	*	*F:	*	*F:	*	*F:	*F:
*M3/4	*	*M3/4	*	*M3/4	*M3/4	*	*M3/4	*	*M3/4	*	*M3/4	*	*M3/4	*	*M3/4	*M3/4
=1	=1	=1	=1	=1	=1	=1	=1	=1	=1	=1	=1	=1	=1	=1	=1	=1
*	*	*	*	*	*	*	*	*	*	*	*	*	*2\right	*	*	*
!	!	!	!	!	!LO:TX:a:t=19 pausen	!	!LO:TX:a:t=19 pausen	!	!LO:TX:a:t=19 Pausen	!	!LO:TX:a:t=19 Pausen	!	!	!	!	!
!LO:TX:a:B:t=Allegro	!	!LO:TX:a:B:t=Allegro	!	!LO:TX:b:B:t=Allegro	!	!	!LO:TX:b:B:t=Allegro	!	!LO:TX:a:B:t=Allegro	!	!	!	!	!	!LO:TX:a:B:t=Allegro	!LO:TX:a:B:t=Allegro
8F\L	.	8a\ 8ff	.	4.ff\	2.r	.	2.r	.	2.r	.	2.r	.	2f\	.	4a\	4ff\
8c\	.	4a\ 4ff	.	.	.	.	.	.	.	.	.	.	.	.	.	.
8A\	.	.	.	.	.	.	.	.	.	.	.	.	.	.	4cc\	4ff\
8c\	.	4a\ 4ff	.	16ff\LL	.	.	.	.	.	.	.	.	.	.	.	.
.	.	.	.	16gg\JJ	.	.	.	.	.	.	.	.	.	.	.	.
*	*	*	*	*	*	*	*	*	*	*	*	*	*4\right	*	*	*
8F\	.	.	.	16aa\LL	.	.	.	.	.	.	.	.	4a\	.	4ff\	8aa\L
.	.	.	.	16gg\	.	.	.	.	.	.	.	.	.	.	.	.
8c\J	.	8a\ 8ff	.	16aa\	.	.	.	.	.	.	.	.	.	.	.	8ff\J
.	.	.	.	16ff\JJ	.	.	.	.	.	.	.	.	.	.	.	.
=2	=2	=2	=2	=2	=2	=2	=2	=2	=2	=2	=2	=2	=2	=2	=2	=2
*	*	*	*	*2\right	*	*	*	*	*	*	*	*	*	*	*	*2\right
8E\L	.	8cc\ 8ee	.	2ccc\	2.r	.	2.r	.	2.r	.	2.r	.	2cc\	.	4cc\	2ccc\
8c\	.	4cc\ 4ee	.	.	.	.	.	.	.	.	.	.	.	.	.	.
8G\	.	.	.	.	.	.	.	.	.	.	.	.	.	.	4ee\	.
8c\	.	4cc\ 4ee	.	.	.	.	.	.	.	.	.	.	.	.	.	.
.	.	.	.	.	.	.	.	.	.	.	.	.	.	.	.	8qqbb-/
8E\	.	.	.	(16ccc\LL	.	.	.	.	.	.	.	.	4b-\	.	4gg\	4bb-\
.	.	.	.	16bb-\	.	.	.	.	.	.	.	.	.	.	.	.
8c\J	.	8cc\ 8ee	.	16aa\	.	.	.	.	.	.	.	.	.	.	.	.
.	.	.	.	16bb-\JJ)	.	.	.	.	.	.	.	.	.	.	.	.
=3	=3	=3	=3	=3	=3	=3	=3	=3	=3	=3	=3	=3	=3	=3	=3	=3
*	*	*	*	*	*	*	*	*	*	*	*	*	*	*	*4\right	*
8F\L	.	4ee\	.	4aa\	2.r	.	2.r	.	2.r	.	2.r	.	4a\	.	4cc\	4aa\
8F\	.	.	.	.	.	.	.	.	.	.	.	.	.	.	.	.
8c\	.	4a/	.	4a\ 4ff	.	.	.	.	.	.	.	.	4f\	.	4a/	4ff\
!LO:TX:a:t=P:problem=mixed beam	!	!	!	!	!	!	!	!	!	!	!	!	!	!	!	!
8c\	.	.	.	.	.	.	.	.	.	.	.	.	.	.	.	.
8C/	.	4g/ 4b-	.	4g\ 4b- 4ee	.	.	.	.	.	.	.	.	4g\	.	4g/	4ee\
8C/J	.	.	.	.	.	.	.	.	.	.	.	.	.	.	.	.
=4	=4	=4	=4	=4	=4	=4	=4	=4	=4	=4	=4	=4	=4	=4	=4	=4
8F\L	.	16a\LL	.	2a\ 2ff	2.r	.	2.r	.	2.r	.	2.r	.	2f\	.	2a/	2ff\
.	.	16a\	.	.	.	.	.	.	.	.	.	.	.	.	.	.
8A\	3	16cc\	.	.	.	.	.	.	.	.	.	.	.	.	.	.
.	.	16cc\JJ	.	.	.	.	.	.	.	.	.	.	.	.	.	.
8B-\	3	16dd\LL	.	.	.	.	.	.	.	.	.	.	.	.	.	.
.	.	16dd\	.	.	.	.	.	.	.	.	.	.	.	.	.	.
8A\	3	16cc\	.	.	.	.	.	.	.	.	.	.	.	.	.	.
.	.	16cc\JJ	.	.	.	.	.	.	.	.	.	.	.	.	.	.
8B-\	3	16dd\LL	.	16r	.	.	.	.	.	.	.	.	4r	.	4r	4r
*	*	*	*	*16\right	*	*	*	*	*	*	*	*	*	*	*	*
.	.	16dd\	.	16cc\LL	.	.	.	.	.	.	.	.	.	.	.	.
8G\J	3	16b-\	.	16dd\	.	.	.	.	.	.	.	.	.	.	.	.
.	.	16b-\JJ	.	16ee\JJ	.	.	.	.	.	.	.	.	.	.	.	.
!LO:LB:g=original	!	!	!	!	!	!	!	!	!	!	!	!	!LO:LB:g=original	!	!LO:LB:g=original	!
=5	=5	=5	=5	=5	=5	=5	=5	=5	=5	=5	=5	=5	=5	=5	=5	=5
8F\L	.	16a\LL	.	4.ff\	2.r	.	2.r	.	2.r	.	2.r	.	4.f\	.	4a\	2ff\
.	.	16ff\	.	.	.	.	.	.	.	.	.	.	.	.	.	.
8c\	.	16ff\	.	.	.	.	.	.	.	.	.	.	.	.	.	.
.	.	16ff\JJ	.	.	.	.	.	.	.	.	.	.	.	.	.	.
*	*	*2\right	*	*	*	*	*	*	*	*	*	*	*	*	*	*
*	*	*tremolo	*	*	*	*	*	*	*	*	*	*	*	*	*	*
8A\	.	16ff\LL	.	.	.	.	.	.	.	.	.	.	.	.	4cc\	.
.	.	16ff\	.	.	.	.	.	.	.	.	.	.	.	.	.	.
8c\	.	16ff\	.	16ff\LL	.	.	.	.	.	.	.	.	8g\L	.	.	.
.	.	16ff\	.	16gg\JJ	.	.	.	.	.	.	.	.	.	.	.	.
8F\	.	16ff\	.	(16aa\LL	.	.	.	.	.	.	.	.	8a\	.	4ff\	4aa\
.	.	16ff\	.	16gg\	.	.	.	.	.	.	.	.	.	.	.	.
8c\J	.	16ff\	.	16aa\	.	.	.	.	.	.	.	.	8f\J	.	.	.
.	.	16ff\JJ	.	16ff\JJ)	.	.	.	.	.	.	.	.	.	.	.	.
!	!	!LO:LB:g=original	!	!LO:LB:g=original	!	!	!	!	!	!	!	!	!	!	!	!LO:LB:g=original
=6	=6	=6	=6	=6	=6	=6	=6	=6	=6	=6	=6	=6	=6	=6	=6	=6
8E\L	.	2.cc\ 2.ee	.	2ccc\	2.r	.	2.r	.	2.r	.	2.r	.	2cc\	.	4cc\	2ccc\
8c\	.	.	.	.	.	.	.	.	.	.	.	.	.	.	.	.
8A\	.	.	.	.	.	.	.	.	.	.	.	.	.	.	4ee\	.
8c\	.	.	.	.	.	.	.	.	.	.	.	.	.	.	.	.
8F\	.	.	.	16ccc\LL	.	.	.	.	.	.	.	.	4b-\	.	4gg\	4bb-\
.	.	.	.	16bb-\	.	.	.	.	.	.	.	.	.	.	.	.
8c\J	.	.	.	16aa\	.	.	.	.	.	.	.	.	.	.	.	.
.	.	.	.	16bb-\JJ	.	.	.	.	.	.	.	.	.	.	.	.
=7	=7	=7	=7	=7	=7	=7	=7	=7	=7	=7	=7	=7	=7	=7	=7	=7
8F\L	.	16cc\LL	.	4aa\	2.r	.	2.r	.	2.r	.	2.r	.	4a\	.	4cc\	4aa\
.	.	16cc\	.	.	.	.	.	.	.	.	.	.	.	.	.	.
8F\	.	16cc\	.	.	.	.	.	.	.	.	.	.	.	.	.	.
.	.	16cc\JJ	.	.	.	.	.	.	.	.	.	.	.	.	.	.
*	*	*	*	*	*	*	*	*	*	*	*	*	*	*	*2\right	*
8B-\	.	16dd\LL	.	4gg\	.	.	.	.	.	.	.	.	4g\	.	2dd\	4gg\
.	.	16dd\	.	.	.	.	.	.	.	.	.	.	.	.	.	.
8B-\	.	16dd\	.	.	.	.	.	.	.	.	.	.	.	.	.	.
.	.	16dd\	.	.	.	.	.	.	.	.	.	.	.	.	.	.
8Bn\	.	16dd\	.	4ff\	.	.	.	.	.	.	.	.	4f\	.	.	4ff\
.	.	16dd\	.	.	.	.	.	.	.	.	.	.	.	.	.	.
8B\J	.	16dd\	.	.	.	.	.	.	.	.	.	.	.	.	.	.
.	.	16dd\JJ	.	.	.	.	.	.	.	.	.	.	.	.	.	.
=8	=8	=8	=8	=8	=8	=8	=8	=8	=8	=8	=8	=8	=8	=8	=8	=8
!	!	!	!	!	!	!	!	!	!	!	!	!	!LO:TX:a:t=P:problem=mixed beam	!	!	!
.	.	.	.	8qqff/	.	.	.	.	.	.	.	.	.	.	.	8qqff#X/
8c\L	.	8g/L	.	8ee\L	2.r	.	2.r	.	2.r	.	2.r	.	8g\L	.	4cc\	8ee\L
8C/	.	16f/L	.	16dd\L	.	.	.	.	.	.	.	.	8c/J	.	.	16dd\L
.	.	16e/JJ	.	16cc\JJ	.	.	.	.	.	.	.	.	.	.	.	16cc\JJ
!LO:TX:t=P:problem=mixed beam	!	!LO:TX:a:t=P:problem=mixed beam	!	!	!	!	!	!	!	!	!	!	!	!	!	!
8c\	.	8e/L	.	4cc\	.	.	.	.	.	.	.	.	2c/	.	8cc\L	8cc\L
8B-X\	.	8dd\J	.	.	.	.	.	.	.	.	.	.	.	.	8cc\J	8ccc\J
8A\	.	(16cc\LL	.	4r	.	.	.	.	.	.	.	.	.	.	4cc\	4ccc\
.	.	16dd\	.	.	.	.	.	.	.	.	.	.	.	.	.	.
8F\J	.	16cc\	.	.	.	.	.	.	.	.	.	.	.	.	.	.
.	.	16a\JJ)	.	.	.	.	.	.	.	.	.	.	.	.	.	.
=9	=9	=9	=9	=9	=9	=9	=9	=9	=9	=9	=9	=9	=9	=9	=9	=9
8B-\L	.	16f/ 16b-LL	.	4.dd\	2.r	.	2.r	.	2.r	.	2.r	.	2.r	.	4bb-\	4ddd\
.	.	16f/ 16b-	.	.	.	.	.	.	.	.	.	.	.	.	.	.
8F\	.	16f/ 16b-	.	.	.	.	.	.	.	.	.	.	.	.	.	.
.	.	16f/ 16b-	.	.	.	.	.	.	.	.	.	.	.	.	.	.
8B-\	.	16f/ 16b-	.	.	.	.	.	.	.	.	.	.	.	.	4r	4r
.	.	16f/ 16b-	.	.	.	.	.	.	.	.	.	.	.	.	.	.
8E\	.	16f/ 16b-	.	16dd\LL	.	.	.	.	.	.	.	.	.	.	.	.
.	.	16f/ 16b-	.	16ee\JJ	.	.	.	.	.	.	.	.	.	.	.	.
.	.	.	.	8qgg/	.	.	.	.	.	.	.	.	.	.	.	.
8B-\	.	16f/ 16b-	.	8ff\L	.	.	.	.	.	.	.	.	.	.	4r	4r
.	.	16f/ 16b-	.	.	.	.	.	.	.	.	.	.	.	.	.	.
8F\J	.	16f/ 16b-	.	16ee\L	.	.	.	.	.	.	.	.	.	.	.	.
.	.	16f/ 16b-JJ	.	16dd\JJ	.	.	.	.	.	.	.	.	.	.	.	.
=10	=10	=10	=10	=10	=10	=10	=10	=10	=10	=10	=10	=10	=10	=10	=10	=10
8r	.	16f/ 16aLL	.	4cc\	2.r	.	2.r	.	2.r	.	2.r	.	8r	.	8r	8r
.	.	16f/ 16a	.	.	.	.	.	.	.	.	.	.	.	.	.	.
16F\LL	.	16f/ 16a	.	.	.	.	.	.	.	.	.	.	16f\LL	.	8aa\L	8ccc\L
16G\JJ	.	16f/ 16a	.	.	.	.	.	.	.	.	.	.	16a\JJ	.	.	.
8A\L	.	16f/ 16a	.	8r	.	.	.	.	.	.	.	.	4cc\	.	8ff\	8aa\
.	.	16f/ 16a	.	.	.	.	.	.	.	.	.	.	.	.	.	.
.	.	.	.	8qqbn/	.	.	.	.	.	.	.	.	.	.	.	.
8c\	.	16f/ 16a	.	8cc\L	.	.	.	.	.	.	.	.	.	.	8aa\	8ccc\
.	.	16f/ 16a	.	.	.	.	.	.	.	.	.	.	.	.	.	.
8A\	.	16f/ 16a	.	8cc\	.	.	.	.	.	.	.	.	4r	.	8ff\	8aa\
.	.	16f/ 16a	.	.	.	.	.	.	.	.	.	.	.	.	.	.
8F\J	.	16f/ 16a	.	8cc\J	.	.	.	.	.	.	.	.	.	.	8aa\J	8ccc\J
.	.	16f/ 16aJJ	.	.	.	.	.	.	.	.	.	.	.	.	.	.
!LO:LB:g=original	!	!	!	!	!	!	!	!	!	!	!	!	!LO:LB:g=original	!	!	!
=11	=11	=11	=11	=11	=11	=11	=11	=11	=11	=11	=11	=11	=11	=11	=11	=11
8B-\L	.	16f/ 16b-LL	.	4.dd\	2.r	.	2.r	.	2.r	.	2.r	.	2.r	.	4bb-\	4ddd\
.	.	16f/ 16b-	.	.	.	.	.	.	.	.	.	.	.	.	.	.
8F\	.	16f/ 16b-	.	.	.	.	.	.	.	.	.	.	.	.	.	.
.	.	16f/ 16b-	.	.	.	.	.	.	.	.	.	.	.	.	.	.
8B-\	.	16f/ 16b-	.	.	.	.	.	.	.	.	.	.	.	.	4r	4r
.	.	16f/ 16b-	.	.	.	.	.	.	.	.	.	.	.	.	.	.
8F\	.	16f/ 16b-	.	16ee\LL	.	.	.	.	.	.	.	.	.	.	.	.
.	.	16f/ 16b-	.	16ff\JJ	.	.	.	.	.	.	.	.	.	.	.	.
.	.	.	.	8qgg/	.	.	.	.	.	.	.	.	.	.	.	.
8B-\	.	16f/ 16b-	.	8ff\L	.	.	.	.	.	.	.	.	.	.	4r	4r
.	.	16f/ 16b-	.	.	.	.	.	.	.	.	.	.	.	.	.	.
8F\J	.	16f/ 16b-	.	16ee\L	.	.	.	.	.	.	.	.	.	.	.	.
.	.	16f/ 16b-JJ	.	16dd\JJ	.	.	.	.	.	.	.	.	.	.	.	.
!	!	!	!	!LO:LB:g=original	!	!	!	!	!	!	!	!	!	!	!LO:LB:g=original	!LO:LB:g=original
=12	=12	=12	=12	=12	=12	=12	=12	=12	=12	=12	=12	=12	=12	=12	=12	=12
8r	.	16f/ 16aLL	.	4cc\	2.r	.	2.r	.	2.r	.	2.r	.	8r	.	8r	8r
.	.	16f/ 16a	.	.	.	.	.	.	.	.	.	.	.	.	.	.
16F\LL	.	16f/ 16a	.	.	.	.	.	.	.	.	.	.	16f\LL	.	4ff\	8ccc\L
16G\JJ	.	16f/ 16a	.	.	.	.	.	.	.	.	.	.	16a\JJ	.	.	.
8A\L	.	16f/ 16a	.	8r	.	.	.	.	.	.	.	.	4cc\	.	.	8aa\
.	.	16f/ 16a	.	.	.	.	.	.	.	.	.	.	.	.	.	.
.	.	.	.	8qqbn/	.	.	.	.	.	.	.	.	.	.	.	.
8c\	.	16f/ 16a	.	8cc\L	.	.	.	.	.	.	.	.	.	.	4ff\	8ccc\
.	.	16f/ 16a	.	.	.	.	.	.	.	.	.	.	.	.	.	.
.	.	.	.	8qqb/	.	.	.	.	.	.	.	.	.	.	.	.
8A\	.	16f/ 16a	.	8cc\	.	.	.	.	.	.	.	.	4r	.	.	8aa\
.	.	16f/ 16a	.	.	.	.	.	.	.	.	.	.	.	.	.	.
.	.	.	.	8qqb/	.	.	.	.	.	.	.	.	.	.	.	.
8F\J	.	16f/ 16a	.	8cc\J	.	.	.	.	.	.	.	.	.	.	8ff\	8ccc\J
.	.	16f/ 16aJJ	.	.	.	.	.	.	.	.	.	.	.	.	.	.
=13	=13	=13	=13	=13	=13	=13	=13	=13	=13	=13	=13	=13	=13	=13	=13	=13
8E\L	.	16cc\LL	.	2bb-\	2.r	.	2.r	.	2.r	.	2.r	.	2b-\	.	2gg\	2bb-\
.	.	16cc\	.	.	.	.	.	.	.	.	.	.	.	.	.	.
8E\	.	16cc\	.	.	.	.	.	.	.	.	.	.	.	.	.	.
.	.	16cc\	.	.	.	.	.	.	.	.	.	.	.	.	.	.
8G\	.	16cc\	.	.	.	.	.	.	.	.	.	.	.	.	.	.
.	.	16cc\	.	.	.	.	.	.	.	.	.	.	.	.	.	.
8G\	.	16cc\	.	.	.	.	.	.	.	.	.	.	.	.	.	.
.	.	16cc\	.	.	.	.	.	.	.	.	.	.	.	.	.	.
*	*	*	*	*	*	*	*	*	*	*	*	*	*	*	*	*4\right
8F\	.	16cc\	.	4aa\	.	.	.	.	.	.	.	.	4a\	.	4ff\	4aa\
.	.	16cc\	.	.	.	.	.	.	.	.	.	.	.	.	.	.
8F\J	.	16cc\	.	.	.	.	.	.	.	.	.	.	.	.	.	.
.	.	16cc\JJ	.	.	.	.	.	.	.	.	.	.	.	.	.	.
!	!	!LO:LB:g=original	!	!	!	!	!	!	!	!	!	!	!	!	!	!
=14	=14	=14	=14	=14	=14	=14	=14	=14	=14	=14	=14	=14	=14	=14	=14	=14
*2\right	*	*	*	*	*	*	*	*	*	*	*	*	*	*	*	*
*tremolo	*	*	*	*	*	*	*	*	*	*	*	*	*	*	*	*
8B-\L	.	16dd\LL	.	2gg\	2.r	.	2.r	.	2.r	.	2.r	.	2g\	.	2dd\	2gg\
.	.	16dd\	.	.	.	.	.	.	.	.	.	.	.	.	.	.
8B-\	.	16dd\	.	.	.	.	.	.	.	.	.	.	.	.	.	.
.	.	16dd\	.	.	.	.	.	.	.	.	.	.	.	.	.	.
8B-\	.	16dd\	.	.	.	.	.	.	.	.	.	.	.	.	.	.
.	.	16dd\	.	.	.	.	.	.	.	.	.	.	.	.	.	.
8B-\J	.	16dd\	.	.	.	.	.	.	.	.	.	.	.	.	.	.
.	.	16dd\JJ	.	.	.	.	.	.	.	.	.	.	.	.	.	.
*Xtremolo	*	*	*	*	*	*	*	*	*	*	*	*	*	*	*	*
!	!	!	!	!	!	!	!	!	!	!	!	!	!	!	!	!LO:N:vis=4
8Bn\L	.	16dd\LL	.	4ff\	.	.	.	.	.	.	.	.	4f\	.	4dd\	8ff\
.	.	16dd\	.	.	.	.	.	.	.	.	.	.	.	.	.	.
!	!	!	!	!	!	!	!	!	!	!	!	!	!	!	!	!LO:N:vis=4
8B\J	.	16dd\	.	.	.	.	.	.	.	.	.	.	.	.	.	8r
.	.	16dd\JJ	.	.	.	.	.	.	.	.	.	.	.	.	.	.
=15	=15	=15	=15	=15	=15	=15	=15	=15	=15	=15	=15	=15	=15	=15	=15	=15
.	.	.	.	8qqff/	.	.	.	.	.	.	.	.	.	.	.	.
4c\	.	8g/L	.	8ee\L	2.r	.	2.r	.	2.r	.	2.r	.	2.g\	.	4cc\	4ee\
.	.	16f/L	.	16dd\L	.	.	.	.	.	.	.	.	.	.	.	.
.	.	16e/JJ	.	16cc\JJ	.	.	.	.	.	.	.	.	.	.	.	.
4C/	.	(8e/L	.	8cc\L	.	.	.	.	.	.	.	.	.	.	4r	4r
.	.	8g/J)	.	8dd\	.	.	.	.	.	.	.	.	.	.	.	.
4r	.	(8cc\L	.	8ee\	.	.	.	.	.	.	.	.	.	.	4r	4r
.	.	8dd\J)	.	8ff\J	.	.	.	.	.	.	.	.	.	.	.	.
=16	=16	=16	=16	=16	=16	=16	=16	=16	=16	=16	=16	=16	=16	=16	=16	=16
.	.	.	.	8qqaa/	.	.	.	.	.	.	.	.	.	.	.	.
4c\	.	8ee\L	.	8gg\L	2.r	.	2.r	.	2.r	.	2.r	.	2g\	.	2.r	2.r
.	.	16dd\L	.	16ff\L	.	.	.	.	.	.	.	.	.	.	.	.
.	.	16cc\JJ	.	16ee\JJ	.	.	.	.	.	.	.	.	.	.	.	.
4C/	.	8cc\L	.	8ee\L	.	.	.	.	.	.	.	.	.	.	.	.
.	.	8dd\J	.	8ff\	.	.	.	.	.	.	.	.	.	.	.	.
4r	.	8ee\L	.	8gg\	.	.	.	.	.	.	.	.	8g\L	.	.	.
.	.	8ff\J	.	8aa\J	.	.	.	.	.	.	.	.	8a\J	.	.	.
=17	=17	=17	=17	=17	=17	=17	=17	=17	=17	=17	=17	=17	=17	=17	=17	=17
8E\L	.	16cc\LL	.	2bb-\	2.r	.	2.r	.	2.r	.	2.r	.	2b-\	.	2gg\	2bb-\
.	.	16cc\	.	.	.	.	.	.	.	.	.	.	.	.	.	.
8E\	.	16cc\	.	.	.	.	.	.	.	.	.	.	.	.	.	.
.	.	16cc\	.	.	.	.	.	.	.	.	.	.	.	.	.	.
8G\	.	16cc\	.	.	.	.	.	.	.	.	.	.	.	.	.	.
.	.	16cc\	.	.	.	.	.	.	.	.	.	.	.	.	.	.
8G\	.	16cc\	.	.	.	.	.	.	.	.	.	.	.	.	.	.
.	.	16cc\	.	.	.	.	.	.	.	.	.	.	.	.	.	.
8F\	.	16cc\	.	(16bb-\LL	.	.	.	.	.	.	.	.	8b-\L	.	4ff\	4aa\
.	.	16cc\	.	16aa\	.	.	.	.	.	.	.	.	.	.	.	.
8F\J	.	16cc\	.	16gg\	.	.	.	.	.	.	.	.	8a\J	.	.	.
.	.	16cc\JJ	.	16aa\JJ)	.	.	.	.	.	.	.	.	.	.	.	.
!LO:LB:g=original	!	!	!	!LO:LB:g=original	!	!	!	!	!	!	!	!	!LO:LB:g=original	!	!	!
=18	=18	=18	=18	=18	=18	=18	=18	=18	=18	=18	=18	=18	=18	=18	=18	=18
*tremolo	*	*	*	*	*	*	*	*	*	*	*	*	*	*	*	*
8B-\L	6	16dd\LL	.	2gg\	2.r	.	2.r	.	2.r	.	2.r	.	2g\	.	2dd\	2gg\
.	.	16dd\	.	.	.	.	.	.	.	.	.	.	.	.	.	.
8B-\	.	16dd\	.	.	.	.	.	.	.	.	.	.	.	.	.	.
.	.	16dd\	.	.	.	.	.	.	.	.	.	.	.	.	.	.
8B-\	.	16dd\	.	.	.	.	.	.	.	.	.	.	.	.	.	.
.	.	16dd\	.	.	.	.	.	.	.	.	.	.	.	.	.	.
8B-\J	.	16dd\	.	.	.	.	.	.	.	.	.	.	.	.	.	.
.	.	16dd\	.	.	.	.	.	.	.	.	.	.	.	.	.	.
*Xtremolo	*	*	*	*	*	*	*	*	*	*	*	*	*	*	*	*
8Bn\L	5	16dd\	.	(16gg\LL	.	.	.	.	.	.	.	.	8g\L	.	4dd\	4ff\
.	.	16dd\	.	16ff\	.	.	.	.	.	.	.	.	.	.	.	.
8B\J	.	16dd\	.	16ee\	.	.	.	.	.	.	.	.	8f\J	.	.	.
.	.	16dd\JJ	.	16ff\JJ)	.	.	.	.	.	.	.	.	.	.	.	.
!	!	!	!	!	!	!	!	!	!	!	!	!	!	!	!	!LO:LB:g=original
=19	=19	=19	=19	=19	=19	=19	=19	=19	=19	=19	=19	=19	=19	=19	=19	=19
!LO:TX:a:t=P:problem=mixed beam	!	!	!	!	!	!	!	!	!	!	!	!	!	!	!	!
8C/L	.	4a/	.	4ff\	2.r	.	2.r	.	2.r	.	2.r	.	2g\	.	4g/	4ff\
16c\L	.	.	.	.	.	.	.	.	.	.	.	.	.	.	.	.
16Bn\JJ	.	.	.	.	.	.	.	.	.	.	.	.	.	.	.	.
!	!	!LO:TX:a:t=P:problem=mixed beam	!	!	!	!	!	!	!	!	!	!	!	!	!LO:TX:a:t=P:problem=mixed beam	!
8c\L	.	8g/L	.	4ee\	.	.	.	.	.	.	.	.	.	.	8g/L	8ee\L
8B-X\	.	8dd\J	.	.	.	.	.	.	.	.	.	.	.	.	8cc\J	8ccc\J
8A\	.	(16cc\LL	.	8r	.	.	.	.	.	.	.	.	4r	.	4cc\	4cc\
.	.	16dd\	.	.	.	.	.	.	.	.	.	.	.	.	.	.
8G\J	.	16cc\	.	8cc\	.	.	.	.	.	.	.	.	.	.	.	.
.	.	16b-\JJ)	.	.	.	.	.	.	.	.	.	.	.	.	.	.
!	!	!LO:LB:g=original	!	!	!	!	!	!	!	!	!	!	!	!	!LO:LB:g=original	!
=20	=20	=20	=20	=20	=20	=20	=20	=20	=20	=20	=20	=20	=20	=20	=20	=20
*	*	*	*	*	*2\right	*	*2\right	*	*2\right	*	*2\right	*	*	*	*	*
!LO:TX:a:i:t=Tutti	!	!	!	!	!	!	!	!	!	!	!	!	!	!	!	!
8F\L	.	8a\ 8ff	f	4.ff\	2F\	E-	2f\	E-	2g\	E-	2cc\	E-	2f\	.	4a\	2ff\
8c\	.	4a\ 4ff	.	.	.	.	.	.	.	.	.	.	.	.	.	.
8A\	.	.	.	.	.	.	.	.	.	.	.	.	.	.	4cc\	.
8c\	.	4a\ 4ff	.	16ff\LL	.	.	.	.	.	.	.	.	.	.	.	.
.	.	.	.	16gg\JJ	.	.	.	.	.	.	.	.	.	.	.	.
*	*	*	*	*	*8\right	*	*4\right	*	*4\right	*	*4\right	*	*	*	*	*
8F\	.	.	.	16aa\LL	8G\L	-ja	4f\	-ja	4g\	-ja	4cc\	-ja	4a\	.	4ff\	8aa\L
.	.	.	.	16gg\	.	.	.	.	.	.	.	.	.	.	.	.
8c\J	.	8a\ 8ff	.	16aa\	8F\J	.	.	.	.	.	.	.	.	.	.	8ff\J
.	.	.	.	16ff\JJ	.	.	.	.	.	.	.	.	.	.	.	.
=21	=21	=21	=21	=21	=21	=21	=21	=21	=21	=21	=21	=21	=21	=21	=21	=21
8E\L	.	8cc\ 8ee	.	2ccc\	2c\	cho-	2e\	cho-	2g\	cho-	2cc\	cho-	2cc\	.	4cc\	2ccc\
8c\	.	4cc\ 4ee	.	.	.	.	.	.	.	.	.	.	.	.	.	.
8G\	.	.	.	.	.	.	.	.	.	.	.	.	.	.	4ee\	.
8c\	.	4cc\ 4ee	.	.	.	.	.	.	.	.	.	.	.	.	.	.
8E\	.	.	.	16ccc\LL	8C/L	-ri	4e\	-ri	4g\	-ri	4b-\	-ri	4b-\	.	4gg\	4bb-\
.	.	.	.	16bb-\	.	.	.	.	.	.	.	.	.	.	.	.
8E\J	.	8cc\ 8ee	.	16aa\	16D/L	.	.	.	.	.	.	.	.	.	.	.
.	.	.	.	16bb-\JJ	16E/JJ	.	.	.	.	.	.	.	.	.	.	.
!	!	!	!	!	!LO:LB:g=original	!	!LO:LB:g=original	!	!	!	!LO:LB:g=original	!	!	!	!	!
=22	=22	=22	=22	=22	=22	=22	=22	=22	=22	=22	=22	=22	=22	=22	=22	=22
!LO:TX:a:t=P:problem=mixed beam	!	!	!	!	!	!	!	!	!	!	!	!	!	!	!	!
8F\L	.	4cc\	.	4aa\	8F\	re-	8c\	re-	8a\	re-	8a\	re-	4a\	.	4cc\	4aa\
8F\	.	.	.	.	16F\LL	-so-	8c\	-so-	8a\	-so-	8cc\	-so-	.	.	.	.
.	.	.	.	.	16A\JJ	.	.	.	.	.	.	.	.	.	.	.
8c\	.	4f/ 4a	.	4a\ 4ff	4c\	-na-	(4c\	-na-	(4a\	-na-	(4ff\	-na-	4f\	.	4a/	4ff\
8c\	.	.	.	.	.	.	.	.	.	.	.	.	.	.	.	.
8C/	.	4g/ 4b-	.	4g\ 4b- 4ee	4C/	.	4B-\)	.	4g\)	.	4ee\)	.	4g\	.	4g/	4ee\
8C/J	.	.	.	.	.	.	.	.	.	.	.	.	.	.	.	.
!	!	!	!	!	!	!	!	!	!LO:LB:g=original	!	!	!	!	!	!	!
=23	=23	=23	=23	=23	=23	=23	=23	=23	=23	=23	=23	=23	=23	=23	=23	=23
*	*	*Xtremolo	*	*	*	*	*	*	*	*	*	*	*	*	*	*
8F\L	.	16a\LL	.	2ff\	2F\	-te	2c\	-te	2a\	-te	2ff\	-te	2f\	.	2a/	2ff\
.	.	16a\	.	.	.	.	.	.	.	.	.	.	.	.	.	.
8A\	.	16cc\	.	.	.	.	.	.	.	.	.	.	.	.	.	.
.	.	16cc\JJ	.	.	.	.	.	.	.	.	.	.	.	.	.	.
8B-\	.	16dd\LL	.	.	.	.	.	.	.	.	.	.	.	.	.	.
.	.	16dd\	.	.	.	.	.	.	.	.	.	.	.	.	.	.
8A\	.	16cc\	.	.	.	.	.	.	.	.	.	.	.	.	.	.
.	.	16cc\JJ	.	.	.	.	.	.	.	.	.	.	.	.	.	.
8B-\	.	16dd\LL	.	16r	4r	.	4r	.	4r	.	4r	.	4r	.	4r	4r
.	.	16dd\	.	16cc\LL	.	.	.	.	.	.	.	.	.	.	.	.
8G\J	.	16b-\	.	16dd\	.	.	.	.	.	.	.	.	.	.	.	.
.	.	16b-\JJ	.	16ee\JJ	.	.	.	.	.	.	.	.	.	.	.	.
!LO:LB:g=original	!	!	!	!LO:LB:g=original	!	!	!	!	!	!	!	!	!	!	!	!
=24	=24	=24	=24	=24	=24	=24	=24	=24	=24	=24	=24	=24	=24	=24	=24	=24
*tremolo	*	*	*	*	*	*	*	*	*	*	*	*	*	*	*	*
8F\L	.	16a\LL	.	4.ff\	2F\	ac	2c\	ac	2a\	ac	2ff\	ac	4.f\	.	4a/	2ff\
.	.	16ff\	.	.	.	.	.	.	.	.	.	.	.	.	.	.
8F\	.	16ff\	.	.	.	.	.	.	.	.	.	.	.	.	.	.
.	.	16ff\JJ	.	.	.	.	.	.	.	.	.	.	.	.	.	.
*	*	*tremolo	*	*	*	*	*	*	*	*	*	*	*	*	*	*
8F\	.	16ff\LL	.	.	.	.	.	.	.	.	.	.	.	.	4cc\	.
.	.	16ff\	.	.	.	.	.	.	.	.	.	.	.	.	.	.
8F\	.	16ff\	.	16ff\LL	.	.	.	.	.	.	.	.	8g\L	.	.	.
.	.	16ff\	.	16gg\JJ	.	.	.	.	.	.	.	.	.	.	.	.
8F\	.	16ff\	.	(16aa\LL	8A\L	so-	4c\	so-	4a\	so-	4ff\	so-	8a\	.	4ff\	8aa\L
.	.	16ff\	.	16gg\	.	.	.	.	.	.	.	.	.	.	.	.
8F\J	.	16ff\	.	16aa\	8F\J	.	.	.	.	.	.	.	8f\J	.	.	8ff\J
.	.	16ff\JJ	.	16ff\JJ)	.	.	.	.	.	.	.	.	.	.	.	.
!	!	!LO:LB:g=original	!	!	!	!	!	!	!	!	!	!	!LO:LB:g=original	!	!	!
=25	=25	=25	=25	=25	=25	=25	=25	=25	=25	=25	=25	=25	=25	=25	=25	=25
!	!	!	!LO:DY:t=for	!	!	!	!	!	!	!	!	!	!	!	!	!
8E\L	.	16cc\ 16eeLL	f	2ccc\	2c\	-lem-	2e\	-lem-	2g\	-lem-	2cc\	-lem-	2cc\	.	4cc\	2ccc\
.	.	16cc\ 16ee	.	.	.	.	.	.	.	.	.	.	.	.	.	.
8E\	.	16cc\ 16ee	.	.	.	.	.	.	.	.	.	.	.	.	.	.
.	.	16cc\ 16ee	.	.	.	.	.	.	.	.	.	.	.	.	.	.
8E\	.	16cc\ 16ee	.	.	.	.	.	.	.	.	.	.	.	.	4ee\	.
.	.	16cc\ 16ee	.	.	.	.	.	.	.	.	.	.	.	.	.	.
8E\	.	16cc\ 16ee	.	.	.	.	.	.	.	.	.	.	.	.	.	.
.	.	16cc\ 16ee	.	.	.	.	.	.	.	.	.	.	.	.	.	.
8E\	.	16cc\ 16ee	.	16ccc\LL	8C/L	-ni	4e\	-ni	4g\	-ni	4b-\	-ni	8cc\L	.	4gg\	4bb-\
.	.	16cc\ 16ee	.	16bb-\	.	.	.	.	.	.	.	.	.	.	.	.
8E\J	.	16cc\ 16ee	.	16aa\	16D/L	.	.	.	.	.	.	.	8b-\J	.	.	.
.	.	16cc\ 16eeJJ	.	16bb-\JJ	16E/JJ	.	.	.	.	.	.	.	.	.	.	.
*Xtremolo	*	*	*	*	*	*	*	*	*	*	*	*	*	*	*	*
!	!	!	!	!	!LO:LB:g=original	!	!	!	!	!	!	!	!	!	!LO:LB:g=original	!LO:LB:g=original
=26	=26	=26	=26	=26	=26	=26	=26	=26	=26	=26	=26	=26	=26	=26	=26	=26
8F\L	.	16cc\LL	.	4aa\	8F\L	me-	(4c\	me-	4f\	me-	(4cc\	me-	4a\	.	4cc\	4aa\
.	.	16cc\	.	.	.	.	.	.	.	.	.	.	.	.	.	.
8F\	.	16cc\	.	.	16G\L	.	.	.	.	.	.	.	.	.	.	.
.	.	16cc\JJ	.	.	16A\JJ	.	.	.	.	.	.	.	.	.	.	.
8B-\	.	16dd\LL	.	4gg\	4B-\	.	4d\)	.	2dd\	-los	4gg\)	.	4r	.	2dd\	4gg\
.	.	16dd\	.	.	.	.	.	.	.	.	.	.	.	.	.	.
8B-\	.	16dd\	.	.	.	.	.	.	.	.	.	.	.	.	.	.
.	.	16dd\	.	.	.	.	.	.	.	.	.	.	.	.	.	.
8Bn\	.	16dd\	.	4ff\	4Bn\	-los	4d\	-los	.	.	4ff\	-los	4r	.	.	4ff\
.	.	16dd\	.	.	.	.	.	.	.	.	.	.	.	.	.	.
8B\J	.	16dd\	.	.	.	.	.	.	.	.	.	.	.	.	.	.
.	.	16dd\JJ	.	.	.	.	.	.	.	.	.	.	.	.	.	.
!	!	!	!	!	!	!	!LO:LB:g=original	!	!	!	!LO:LB:g=original	!	!	!	!	!
=27	=27	=27	=27	=27	=27	=27	=27	=27	=27	=27	=27	=27	=27	=27	=27	=27
*	*	*	*	*	*	*	*	*	*	*	*8\right	*	*	*	*	*
!LO:TX:a:t=P:problem=mixed beam	!	!	!	!	!	!	!	!	!	!	!	!	!	!	!	!
.	.	.	.	8qff/	.	.	.	.	.	.	.	.	.	.	.	8qqff/
!	!	!	!	!	!	!	!	!	!	!	!	!	!	!LO:DY:a:t=for	!	!
8c\L	.	8g/L	.	8ee\L	4c\	da-	4c\	da-	8g\L	da-	8ee\L	da-	4g\	f	8g/L	8ee\L
*	*	*	*	*	*	*	*	*	*	*	*16\right	*	*	*	*	*
8C/	.	16f/L	.	16dd\L	.	.	.	.	16f\L	.	16dd\L	.	.	.	16f/L	16dd\L
.	.	16e/JJ	.	16cc\JJ	.	.	.	.	16e\JJ	.	16cc\JJ	.	.	.	16e/JJ	16cc\JJ
!	!	!LO:TX:a:t=P:problem=mixed beam	!	!	!	!	!	!	!	!	!	!	!	!	!LO:TX:a:t=P:problem=mixed beam	!
8c\	.	8e/L	.	4cc\	4C/	-te	4c\	-te	4e\	-te	4cc\	-te	4r	.	8e/L	8cc\L
8B-X\	.	8dd\J	.	.	.	.	.	.	.	.	.	.	.	.	8cc\J	8ccc\J
.	.	8qdd/	.	.	.	.	.	.	.	.	.	.	.	.	.	.
8A\	.	8cc\L	.	4r	4r	.	4r	.	4r	.	4r	.	4r	.	4cc\	4ccc\
16G\L	.	16b-\L	.	.	.	.	.	.	.	.	.	.	.	.	.	.
16F\JJ	.	16a\JJ	.	.	.	.	.	.	.	.	.	.	.	.	.	.
=28	=28	=28	=28	=28	=28	=28	=28	=28	=28	=28	=28	=28	=28	=28	=28	=28
8B-\L	.	16f/ 16b-LL	.	4.dd\	2.r	.	2.r	.	4.b-\	La-	4.dd\	La-	2.r	.	2.r	2.r
.	.	16f/ 16b-	.	.	.	.	.	.	.	.	.	.	.	.	.	.
8F\J	.	16f/ 16b-	.	.	.	.	.	.	.	.	.	.	.	.	.	.
.	.	16f/ 16b-	.	.	.	.	.	.	.	.	.	.	.	.	.	.
8B-\L	.	16f/ 16b-	.	.	.	.	.	.	.	.	.	.	.	.	.	.
.	.	16f/ 16b-	.	.	.	.	.	.	.	.	.	.	.	.	.	.
8F\J	.	16f/ 16b-	.	16ee\LL	.	.	.	.	8cc\	-u-	8ee\	-u-	.	.	.	.
.	.	16f/ 16b-	.	16ff\JJ	.	.	.	.	.	.	.	.	.	.	.	.
.	.	.	.	8qqgg/	.	.	.	.	.	.	8qgg/	.	.	.	.	.
8B-\L	.	16f/ 16b-	.	8ff\L	.	.	.	.	8dd\L	-da-	8ff\L	-da-	.	.	.	.
.	.	16f/ 16b-	.	.	.	.	.	.	.	.	.	.	.	.	.	.
8F\J	.	16f/ 16b-	.	16ee\L	.	.	.	.	16cc\L	.	16ee\L	.	.	.	.	.
.	.	16f/ 16b-JJ	.	16dd\JJ	.	.	.	.	16b-\JJ	.	16dd\JJ	.	.	.	.	.
!	!	!	!	!	!	!	!	!	!LO:LB:g=original	!	!	!	!	!	!	!
=29	=29	=29	=29	=29	=29	=29	=29	=29	=29	=29	=29	=29	=29	=29	=29	=29
8r	.	16f/ 16aLL	.	4cc\	8r	.	8r	.	4a\	-te	4cc\	-te	8r	.	8r	8r
.	.	16f/ 16a	.	.	.	.	.	.	.	.	.	.	.	.	.	.
16F\LL	.	16f/ 16a	.	.	16F\LL	lau-	16A\LL	lau-	.	.	.	.	16f\LL	.	8aa\L	8ccc\L
16G\JJ	.	16f/ 16a	.	.	16G\JJ	.	16B-\JJ	.	.	.	.	.	16a\JJ	.	.	.
8A\L	.	16f/ 16a	.	8r	8A\L	-da-	(8c\L	-da-	4r	.	4r	.	4cc\	.	8ff\	8aa\
.	.	16f/ 16a	.	.	.	.	.	.	.	.	.	.	.	.	.	.
.	.	.	.	8qqbn/	.	.	.	.	.	.	.	.	.	.	.	.
8c\	.	16f/ 16a	.	8cc\L	8c\J	.	8f\J)	.	.	.	.	.	.	.	8aa\	8ccc\
.	.	16f/ 16a	.	.	.	.	.	.	.	.	.	.	.	.	.	.
.	.	.	.	8qqb/	.	.	.	.	.	.	.	.	.	.	.	.
8A\	.	16f/ 16a	.	8cc\	8A\L	-te	(8c\L	-te	4r	.	4r	.	4r	.	8ff\	8aa\
.	.	16f/ 16a	.	.	.	.	.	.	.	.	.	.	.	.	.	.
.	.	.	.	8qqb/	.	.	.	.	.	.	.	.	.	.	.	.
8F\J	.	16f/ 16a	.	8cc\J	8F\J	.	8A\J)	.	.	.	.	.	.	.	8aa\J	8ccc\J
.	.	16f/ 16aJJ	.	.	.	.	.	.	.	.	.	.	.	.	.	.
!LO:LB:g=original	!	!	!	!LO:LB:g=original	!	!	!	!	!	!	!	!	!	!	!	!
=30	=30	=30	=30	=30	=30	=30	=30	=30	=30	=30	=30	=30	=30	=30	=30	=30
8B-\L	.	16f/ 16b-LL	.	4.dd\	2.r	.	2.r	.	4.b-\	La-	4.dd\	la-	2.r	.	4ff\	4ddd\
.	.	16f/ 16b-	.	.	.	.	.	.	.	.	.	.	.	.	.	.
8F\	.	16f/ 16b-	.	.	.	.	.	.	.	.	.	.	.	.	.	.
.	.	16f/ 16b-	.	.	.	.	.	.	.	.	.	.	.	.	.	.
8B-\	.	16f/ 16b-	.	.	.	.	.	.	.	.	.	.	.	.	4r	4r
.	.	16f/ 16b-	.	.	.	.	.	.	.	.	.	.	.	.	.	.
8F\	.	16f/ 16b-	.	16ee\LL	.	.	.	.	8cc\	-u-	8ee\	-u-	.	.	.	.
.	.	16f/ 16b-	.	16ff\JJ	.	.	.	.	.	.	.	.	.	.	.	.
.	.	.	.	.	.	.	.	.	.	.	8qgg/	.	.	.	.	.
8B-\	.	16f/ 16b-	.	(16gg\LL	.	.	.	.	8dd\L	-da-	8ff\L	-da-	.	.	4r	4r
.	.	16f/ 16b-	.	16ff\	.	.	.	.	.	.	.	.	.	.	.	.
8F\J	.	16f/ 16b-	.	16ee\	.	.	.	.	16cc\L	.	16ee\L	.	.	.	.	.
.	.	16f/ 16b-JJ	.	16dd\JJ)	.	.	.	.	16b-\JJ	.	16dd\JJ	.	.	.	.	.
!	!	!	!	!	!LO:LB:g=original	!	!	!	!	!	!LO:LB:g=original	!	!	!	!LO:LB:g=original	!
=31	=31	=31	=31	=31	=31	=31	=31	=31	=31	=31	=31	=31	=31	=31	=31	=31
8r	.	16f/ 16aLL	.	4cc\	8r	.	8r	.	4a\	-te	4cc\	-te	8r	.	8r	8r
.	.	16f/ 16a	.	.	.	.	.	.	.	.	.	.	.	.	.	.
16F\LL	.	16f/ 16a	.	.	16F\LL	lau-	16A\LL	lau-	.	.	.	.	16f\LL	.	8aa\L	8ccc\L
16G\JJ	.	16f/ 16a	.	.	16G\JJ	.	16B-\JJ	.	.	.	.	.	16a\JJ	.	.	.
8A\L	.	16f/ 16a	.	8r	8A\L	-da-	8c\L	-da-	4r	.	4r	.	4cc\	.	8ff\	8aa\
.	.	16f/ 16a	.	.	.	.	.	.	.	.	.	.	.	.	.	.
.	.	.	.	8qqbn/	.	.	.	.	.	.	.	.	.	.	.	.
8c\	.	16f/ 16a	.	8cc\L	8c\J	.	8f\J	.	.	.	.	.	.	.	8aa\J	8ccc\
.	.	16f/ 16a	.	.	.	.	.	.	.	.	.	.	.	.	.	.
.	.	.	.	8qqb/	.	.	.	.	.	.	.	.	.	.	.	.
8A\	.	16f/ 16a	.	8cc\	8A\L	-te	8c\L	-te	4r	.	8cc\	e	4r	.	4ff\	8aa\
.	.	16f/ 16a	.	.	.	.	.	.	.	.	.	.	.	.	.	.
.	.	.	.	8qqb/	.	.	.	.	.	.	.	.	.	.	.	.
8F\J	.	16f/ 16a	.	8cc\J	8F\J	.	8A\J	.	.	.	8cc\	ja	.	.	.	8ccc\J
.	.	16f/ 16aJJ	.	.	.	.	.	.	.	.	.	.	.	.	.	.
!	!	!	!	!	!	!	!LO:LB:g=original	!	!	!	!	!	!LO:LB:g=original	!	!	!LO:LB:g=original
=32	=32	=32	=32	=32	=32	=32	=32	=32	=32	=32	=32	=32	=32	=32	=32	=32
*	*	*	*	*tremolo	*	*	*	*	*	*	*	*	*	*	*	*
!LO:SIC:o=:v:wykreślone dwa takty	!	!	!	!	!	!	!	!	!	!	!	!	!	!	!	!
8E\L	.	16cc\LL	.	16bb-\LL	8E\	e	8c\	e	8g\	e	2ee\	cho-	2b-\	.	2gg\	2bb-\
.	.	16cc\	.	16bb-\	.	.	.	.	.	.	.	.	.	.	.	.
8E\	.	16cc\	.	16bb-\	8E\	ja	8c\	ja	8g\	ja	.	.	.	.	.	.
.	.	16cc\	.	16bb-\	.	.	.	.	.	.	.	.	.	.	.	.
8G\	.	16cc\	.	16bb-\	4G\	cho-	4c\	cho-	4b-\	cho-	.	.	.	.	.	.
.	.	16cc\	.	16bb-\	.	.	.	.	.	.	.	.	.	.	.	.
8G\	.	16cc\	.	16bb-\	.	.	.	.	.	.	.	.	.	.	.	.
.	.	16cc\	.	16bb-\JJ	.	.	.	.	.	.	.	.	.	.	.	.
8F\	.	16cc\	.	16aa\LL	4F\	-ri	4c\	-ri	4a\	-ri	4ff\	-ri	4a\	.	4ff\	4aa\
.	.	16cc\	.	16aa\	.	.	.	.	.	.	.	.	.	.	.	.
8F\J	.	16cc\	.	16aa\	.	.	.	.	.	.	.	.	.	.	.	.
.	.	16cc\JJ	.	16aa\JJ	.	.	.	.	.	.	.	.	.	.	.	.
!	!	!LO:LB:g=original	!	!	!	!	!	!	!	!	!	!	!	!	!	!
=33	=33	=33	=33	=33	=33	=33	=33	=33	=33	=33	=33	=33	=33	=33	=33	=33
*tremolo	*	*	*	*	*	*	*	*	*	*	*	*	*	*	*	*
8B-\L	.	16dd\LL	.	16gg\LL	2B-\	re-	2d\	re-	2b-\	re-	2gg\	re-	2g\	.	2dd\	2gg\
.	.	16dd\	.	16gg\	.	.	.	.	.	.	.	.	.	.	.	.
8B-\	.	16dd\	.	16gg\	.	.	.	.	.	.	.	.	.	.	.	.
.	.	16dd\	.	16gg\	.	.	.	.	.	.	.	.	.	.	.	.
8B-\	.	16dd\	.	16gg\	.	.	.	.	.	.	.	.	.	.	.	.
.	.	16dd\	.	16gg\	.	.	.	.	.	.	.	.	.	.	.	.
8B-\J	.	16dd\	.	16gg\	.	.	.	.	.	.	.	.	.	.	.	.
.	.	16dd\JJ	.	16gg\JJ	.	.	.	.	.	.	.	.	.	.	.	.
*Xtremolo	*	*	*	*	*	*	*	*	*	*	*	*	*	*	*	*
8Bn\L	.	16dd\LL	.	16ff\LL	4Bn\	-so-	4d\	-so-	4a\	-so-	4ff\	-so-	4r	.	4dd\	4ff\
.	.	16dd\	.	16ff\	.	.	.	.	.	.	.	.	.	.	.	.
8B\J	.	16dd\	.	16ff\	.	.	.	.	.	.	.	.	.	.	.	.
.	.	16dd\JJ	.	16ff\JJ	.	.	.	.	.	.	.	.	.	.	.	.
*	*	*	*	*Xtremolo	*	*	*	*	*	*	*	*	*	*	*	*
!LO:LB:g=original	!	!	!	!	!	!	!	!	!LO:LB:g=original	!	!	!	!	!	!	!
=34	=34	=34	=34	=34	=34	=34	=34	=34	=34	=34	=34	=34	=34	=34	=34	=34
.	.	.	.	8qff/	.	.	.	.	.	.	8qff/	.	.	.	.	.
4c\	.	8g/L	.	8ee\L	4c\	-na-	4c\	-na-	8g\L	-na-	8ee\L	-na-	8r	.	8g/L	8ff\L
.	.	16f/L	.	16dd\L	.	.	.	.	16f\L	.	16dd\L	.	8g\	.	16f/L	16dd\L
.	.	16e/JJ	.	16cc\JJ	.	.	.	.	16e\JJ	.	16cc\JJ	.	.	.	16e/JJ	16cc\JJ
4C/	.	(8e/L	.	16cc\LL	4C/	-te	4c\	-te	4e\	-te	4cc\	-te	4g\	.	4e/	8cc\L
.	.	.	.	16cc\	.	.	.	.	.	.	.	.	.	.	.	.
.	.	8g/J)	.	16dd\	.	.	.	.	.	.	.	.	.	.	.	8dd\
.	.	.	.	16dd\JJ	.	.	.	.	.	.	.	.	.	.	.	.
4r	.	8cc\L	.	16ee\LL	8C/	re-	8c\	re-	4r	.	4r	.	4r	.	8cc\L	8ee\
.	.	.	.	16ee\	.	.	.	.	.	.	.	.	.	.	.	.
.	.	8dd\J	.	16ff\	16E\LL	-so-	8c\	-so-	.	.	.	.	.	.	8dd\J	8ff\J
.	.	.	.	16ff\JJ	16G\JJ	.	.	.	.	.	.	.	.	.	.	.
!	!	!	!	!LO:LB:g=original	!LO:LB:g=original	!	!	!	!	!	!	!	!	!	!	!
=35	=35	=35	=35	=35	=35	=35	=35	=35	=35	=35	=35	=35	=35	=35	=35	=35
.	.	.	.	8qaa/	.	.	.	.	.	.	.	.	.	.	.	.
4c\	.	8ee\L	.	8gg\L	4c\	-na-	4e\	-na-	8g\L	ac	8ee\L	ac	4r	.	8ee\L	8gg\L
.	.	16dd\L	.	16ff\L	.	.	.	.	(16f\L	.	16dd\L	.	.	.	16dd\L	16ff\L
.	.	16cc\JJ	.	16ee\JJ	.	.	.	.	16e\JJ)	.	16cc\JJ	.	.	.	16cc\JJ	16ee\JJ
4C/	.	8cc\L	.	16ee\LL	4C/	-te	4e\	-te	4e\	so-	8cc\L	so-	4r	.	8cc\L	8ee\L
.	.	.	.	16ee\	.	.	.	.	.	.	.	.	.	.	.	.
.	.	8dd\	.	16ff\	.	.	.	.	.	.	8dd\	.	.	.	8dd\	8ff\
.	.	.	.	16ff\JJ	.	.	.	.	.	.	.	.	.	.	.	.
4r	.	8ee\	.	16gg\LL	4r	.	4r	.	4r	.	8ee\	.	8g\L	.	8ee\	8gg\
.	.	.	.	16gg\	.	.	.	.	.	.	.	.	.	.	.	.
.	.	8ff\J	.	16aa\	.	.	.	.	.	.	8ff\J	.	8a\J	.	8ff\J	8aa\J
.	.	.	.	16aa\JJ	.	.	.	.	.	.	.	.	.	.	.	.
!	!	!	!	!	!	!	!LO:LB:g=original	!	!	!	!LO:LB:g=original	!	!	!	!LO:LB:g=original	!
=36	=36	=36	=36	=36	=36	=36	=36	=36	=36	=36	=36	=36	=36	=36	=36	=36
*	*	*	*	*tremolo	*	*	*	*	*	*	*	*	*	*	*	*
8E\L	.	16cc\LL	.	16bb-\LL	8E\	ac	8c\	ac	2b-\	-lem-	2gg\	-lem-	2b-\	.	2gg\	2bb-\
.	.	16cc\	.	16bb-\	.	.	.	.	.	.	.	.	.	.	.	.
8C\	.	16cc\	.	16bb-\	8E\	so-	8c\	so-	.	.	.	.	.	.	.	.
.	.	16cc\	.	16bb-\	.	.	.	.	.	.	.	.	.	.	.	.
8G\	.	16cc\	.	16bb-\	4G\	-lem-	4c\	-lem-	.	.	.	.	.	.	.	.
.	.	16cc\	.	16bb-\	.	.	.	.	.	.	.	.	.	.	.	.
8c\	.	16cc\	.	16bb-\	.	.	.	.	.	.	.	.	.	.	.	.
.	.	16cc\	.	16bb-\JJ	.	.	.	.	.	.	.	.	.	.	.	.
8F\	.	16cc\	.	16aa\LL	4F\	-ni	4c\	-ni	4a\	-ni	4ff\	-ni	4a\	.	4ff\	4aa\
.	.	16cc\	.	16aa\	.	.	.	.	.	.	.	.	.	.	.	.
8C\J	.	16cc\	.	16aa\	.	.	.	.	.	.	.	.	.	.	.	.
.	.	16cc\JJ	.	16aa\JJ	.	.	.	.	.	.	.	.	.	.	.	.
=37	=37	=37	=37	=37	=37	=37	=37	=37	=37	=37	=37	=37	=37	=37	=37	=37
*tremolo	*	*	*	*	*	*	*	*	*	*	*	*	*	*	*	*
.	.	.	.	.	.	.	.	.	8qqa/	.	.	.	.	.	.	.
8B-\L	.	16dd\LL	.	16gg\LL	2B-\	me-	2d\	me-	2g\	me-	2ee\	me-	4g\	.	2dd\	2gg\
.	.	16dd\	.	16gg\	.	.	.	.	.	.	.	.	.	.	.	.
8B-\	.	16dd\	.	16gg\	.	.	.	.	.	.	.	.	.	.	.	.
.	.	16dd\	.	16gg\	.	.	.	.	.	.	.	.	.	.	.	.
8B-\	.	16dd\	.	16gg\	.	.	.	.	.	.	.	.	4r	.	.	.
.	.	16dd\	.	16gg\	.	.	.	.	.	.	.	.	.	.	.	.
8B-\J	.	16dd\	.	16gg\	.	.	.	.	.	.	.	.	.	.	.	.
.	.	16dd\	.	16gg\JJ	.	.	.	.	.	.	.	.	.	.	.	.
*Xtremolo	*	*	*	*	*	*	*	*	*	*	*	*	*	*	*	*
8Bn\L	.	16dd\	.	16ff\LL	4Bn\	-los	4d\	-los	4f\	-los	4dd\	-los	4r	.	4dd\	4ff\
.	.	16dd\	.	16ff\	.	.	.	.	.	.	.	.	.	.	.	.
8B\J	.	16dd\	.	16ff\	.	.	.	.	.	.	.	.	.	.	.	.
.	.	16dd\JJ	.	16ff\JJ	.	.	.	.	.	.	.	.	.	.	.	.
!	!	!	!	!	!	!	!	!	!	!	!	!	!LO:LB:g=original	!	!	!LO:LB:g=original
=38	=38	=38	=38	=38	=38	=38	=38	=38	=38	=38	=38	=38	=38	=38	=38	=38
!LO:TX:a:t=P:problem=mixed beam	!	!	!	!	!	!	!	!	!	!	!	!	!	!	!	!
.	.	.	.	8qff/	.	.	.	.	.	.	8qff	.	.	.	.	8qff/
8C/L	.	8g/L	.	8ee\L	4c\	da-	4G/	da-	8g\L	da-	8ee\L	da-	8r	.	8g/L	8ee\L
16c\L	.	16f/L	.	16dd\L	.	.	.	.	16f\L	.	16dd\L	.	8g\	.	16f/L	16dd\L
16Bn\JJ	.	16e/JJ	.	16cc\JJ	.	.	.	.	16e\JJ	.	16cc\JJ	.	.	.	16e/JJ	16cc\JJ
8c\L	.	16e/LL	.	4cc\	4c\	-te	4G/	-te	4e\	-te	4cc\	-te	4g\	.	4e/	4cc\
.	.	16g/	.	.	.	.	.	.	.	.	.	.	.	.	.	.
8G\	.	16g/	.	.	.	.	.	.	.	.	.	.	.	.	.	.
.	.	16g/JJ	.	.	.	.	.	.	.	.	.	.	.	.	.	.
8E\	.	16g/LL	.	8r	4r	.	4r	.	4r	.	4r	.	4r	.	4r	4r
.	.	16g/	.	.	.	.	.	.	.	.	.	.	.	.	.	.
8C\J	.	16g/	.	24gg\LL	.	.	.	.	.	.	.	.	.	.	.	.
.	.	.	.	24aa\	.	.	.	.	.	.	.	.	.	.	.	.
.	.	16g/JJ	.	.	.	.	.	.	.	.	.	.	.	.	.	.
.	.	.	.	24bbn\JJ	.	.	.	.	.	.	.	.	.	.	.	.
!	!	!LO:LB:g=original	!	!	!	!	!	!	!LO:LB:g=original	!	!	!	!	!	!	!
=39	=39	=39	=39	=39	=39	=39	=39	=39	=39	=39	=39	=39	=39	=39	=39	=39
*tremolo	*	*	*	*	*	*	*	*	*	*	*	*	*	*	*	*
8c\L	.	16G/ 16gLL	.	4ccc\	2c\	i-	2c\	i-	2g\	i-	2ee\	i-	2.g\	.	4r	4r
.	.	16G/ 16g	.	.	.	.	.	.	.	.	.	.	.	.	.	.
8c\	.	16G/ 16g	.	.	.	.	.	.	.	.	.	.	.	.	.	.
.	.	16G/ 16g	.	.	.	.	.	.	.	.	.	.	.	.	.	.
8c\	.	16G/ 16g	.	4gg\	.	.	.	.	.	.	.	.	.	.	4ee\	4gg\
.	.	16G/ 16g	.	.	.	.	.	.	.	.	.	.	.	.	.	.
8c\	.	16G/ 16g	.	.	.	.	.	.	.	.	.	.	.	.	.	.
.	.	16G/ 16g	.	.	.	.	.	.	.	.	.	.	.	.	.	.
8c\	.	16G/ 16g	.	4ee\	4c\	-ta	4c\	-ta	4g\	-ta	4ee\	-ta	.	.	4cc\	4ee\
.	.	16G/ 16g	.	.	.	.	.	.	.	.	.	.	.	.	.	.
8c\J	.	16G/ 16g	.	.	.	.	.	.	.	.	.	.	.	.	.	.
.	.	16G/ 16gJJ	.	.	.	.	.	.	.	.	.	.	.	.	.	.
*Xtremolo	*	*Xtremolo	*	*	*	*	*	*	*	*	*	*	*	*	*	*
!	!	!	!	!LO:LB:g=original	!LO:LB:g=original	!	!	!	!	!	!	!	!	!	!	!
=40	=40	=40	=40	=40	=40	=40	=40	=40	=40	=40	=40	=40	=40	=40	=40	=40
8C/L	.	16G/LL	.	2ee\	2c\	De-	2c\	De-	2g\	De-	2ee\	De-	2.gT\	.	2.cc\	2ee\
.	.	16g/	.	.	.	.	.	.	.	.	.	.	.	.	.	.
16E/L	.	16G/	.	.	.	.	.	.	.	.	.	.	.	.	.	.
16G/JJ	.	16g/JJ	.	.	.	.	.	.	.	.	.	.	.	.	.	.
8c\L	.	16G/LL	.	.	.	.	.	.	.	.	.	.	.	.	.	.
.	.	16g/	.	.	.	.	.	.	.	.	.	.	.	.	.	.
8G\	.	16G/	.	.	.	.	.	.	.	.	.	.	.	.	.	.
.	.	16g/JJ	.	.	.	.	.	.	.	.	.	.	.	.	.	.
!	!	!	!	!	!	!	!	!	!	!	!	!	!	!	!	!LO:TUP:a
*	*	*rep	*	*	*	*	*	*	*	*	*	*	*	*	*	*
8E\	.	16G/LL	.	16ee\LL	4c\	-um	4c\	-um	4g\	-um	16ee\LL	-um	.	.	.	12ee\L
.	.	16g/	.	16ff\	.	.	.	.	.	.	16ff\	.	.	.	.	.
.	.	.	.	.	.	.	.	.	.	.	.	.	.	.	.	12gg\
8C\J	.	16G/	.	16gg\	.	.	.	.	.	.	16gg\	.	.	.	.	.
.	.	.	.	.	.	.	.	.	.	.	.	.	.	.	.	12aa\J
.	.	16g/JJ	.	16aa\JJ	.	.	.	.	.	.	16aa\JJ	.	.	.	.	.
*	*	*Xrep	*	*	*	*	*	*	*	*	*	*	*	*	*	*
!LO:LB:g=original	!	!	!	!	!	!	!LO:LB:g=original	!	!	!	!	!	!	!	!	!
=41	=41	=41	=41	=41	=41	=41	=41	=41	=41	=41	=41	=41	=41	=41	=41	=41
*	*	*tremolo	*	*	*	*	*	*	*	*	*	*	*	*	*	*
!LO:TX:a:t=P:problem=mixed beam	!	!	!	!	!	!	!	!	!	!	!	!	!LO:TX:a:t=2	!	!	!
!	!	!	!	!	!	!	!	!	!	!	!	!	!LO:N:vis=0	!	!	!
8GG/L	.	16g/ 16bnLL	.	4gg\	2G\	col	(4Bn\	col	2bn\	col	(4gg\	col	1.r	.	4r	4gg\
.	.	16g/ 16bn	.	.	.	.	.	.	.	.	.	.	.	.	.	.
8G\	.	16g/ 16bn	.	.	.	.	.	.	.	.	.	.	.	.	.	.
.	.	16g/ 16bn	.	.	.	.	.	.	.	.	.	.	.	.	.	.
8GG/	7	16g/ 16bn	.	4ff\	.	.	4d\)	.	.	.	4ff\)	.	.	.	4dd\	4ff\
.	.	16g/ 16bn	.	.	.	.	.	.	.	.	.	.	.	.	.	.
8G\J	.	16g/ 16bn	.	.	.	.	.	.	.	.	.	.	.	.	.	.
.	.	16g/ 16bn	.	.	.	.	.	.	.	.	.	.	.	.	.	.
!LO:TX:a:t=P:problem=mixed beam	!	!	!	!	!	!	!	!	!	!	!	!	!	!	!	!
8GG/L	5	16g/ 16bn	.	4dd\	4G\	lau-	4d\	lau-	4b\	lau-	4dd\	lau-	.	.	4bn\	4dd\
.	.	16g/ 16bn	.	.	.	.	.	.	.	.	.	.	.	.	.	.
8G/J	.	16g/ 16bn	.	.	.	.	.	.	.	.	.	.	.	.	.	.
.	.	16g/ 16bnJJ	.	.	.	.	.	.	.	.	.	.	.	.	.	.
!	!	!	!	!	!	!	!	!	!	!	!LO:LB:g=original	!	!	!	!	!
=42	=42	=42	=42	=42	=42	=42	=42	=42	=42	=42	=42	=42	=42	=42	=42	=42
8GG/L	.	16g/ 16b-LL	.	2.dd\	2GT\	-da-	2d\	-da-	2b-\	-da-	2dd\	-da-	.	.	2b-\	2dd\
.	.	16g/ 16b-	.	.	.	.	.	.	.	.	.	.	.	.	.	.
16BB-/L	.	16g/ 16b-	.	.	.	.	.	.	.	.	.	.	.	.	.	.
16D/JJ	.	16g/ 16b-	.	.	.	.	.	.	.	.	.	.	.	.	.	.
8G\L	.	16g/ 16b-	.	.	.	.	.	.	.	.	.	.	.	.	.	.
.	.	16g/ 16b-	.	.	.	.	.	.	.	.	.	.	.	.	.	.
8D\J	.	16g/ 16b-	.	.	.	.	.	.	.	.	.	.	.	.	.	.
.	.	16g/ 16b-	.	.	.	.	.	.	.	.	.	.	.	.	.	.
8BBn/L	.	16g/ 16b-	.	.	4G\	-te	4d\	-te	4b-\	-te	4dd\	-te	.	.	4r	4r
.	.	16g/ 16b-	.	.	.	.	.	.	.	.	.	.	.	.	.	.
8GG/J	.	16g/ 16b-	.	.	.	.	.	.	.	.	.	.	.	.	.	.
.	.	16g/ 16b-JJ	.	.	.	.	.	.	.	.	.	.	.	.	.	.
!	!	!	!	!	!	!	!	!	!	!	!	!	!	!	!LO:LB:g=original	!
=43	=43	=43	=43	=43	=43	=43	=43	=43	=43	=43	=43	=43	=43	=43	=43	=43
*tremolo	*	*	*	*	*	*	*	*	*	*	*	*	*	*	*	*
.	.	.	.	8qbbn/	.	.	.	.	.	.	.	.	.	.	.	.
8C/L	.	16G/ 16gLL	.	16ccc\LL	2c\	om-	2c\	om-	2g\	om-	2ee\	om-	2.g\	.	4r	4r
.	.	16G/ 16g	.	16ccc\	.	.	.	.	.	.	.	.	.	.	.	.
8C/	.	16G/ 16g	.	16ccc\	.	.	.	.	.	.	.	.	.	.	.	.
.	.	16G/ 16g	.	16ccc\JJ	.	.	.	.	.	.	.	.	.	.	.	.
8C/	.	16G/ 16g	.	16gg\LL	.	.	.	.	.	.	.	.	.	.	4ee\	4gg\
.	.	16G/ 16g	.	16gg\	.	.	.	.	.	.	.	.	.	.	.	.
8C/	.	16G/ 16g	.	16gg\	.	.	.	.	.	.	.	.	.	.	.	.
.	.	16G/ 16g	.	16gg\JJ	.	.	.	.	.	.	.	.	.	.	.	.
8C/	.	16G/ 16g	.	16ee\LL	4c\	-nis	4c\	-nis	4g\	-nis	4ee\	-nis	.	.	4cc\	4ee\
.	.	16G/ 16g	.	16ee\	.	.	.	.	.	.	.	.	.	.	.	.
8C/J	.	16G/ 16g	.	16ee\	.	.	.	.	.	.	.	.	.	.	.	.
.	.	16G/ 16gJJ	.	16ee\JJ	.	.	.	.	.	.	.	.	.	.	.	.
*Xtremolo	*	*	*	*	*	*	*	*	*	*	*	*	*	*	*	*
=44	=44	=44	=44	=44	=44	=44	=44	=44	=44	=44	=44	=44	=44	=44	=44	=44
!	!	!	!	!	!	!	!	!	!	!	!	!	!	!	!LO:TX:a:t=P:problem=mixed beam	!
8C\L	.	16G/ 16gLL	.	2ee\	2c\	ho-	2c\	ho-	2g\	ho-	2ee\	ho-	2.gT\	.	8cc\L	8ee\L
.	.	16G/ 16g	.	.	.	.	.	.	.	.	.	.	.	.	.	.
16E\L	.	16G/ 16g	.	.	.	.	.	.	.	.	.	.	.	.	8e/J	8cc\
16G\JJ	.	16G/ 16g	.	.	.	.	.	.	.	.	.	.	.	.	.	.
16c\LL	.	16G/ 16g	.	.	.	.	.	.	.	.	.	.	.	.	8cc\L	8ee\
16Bn\	.	16G/ 16g	.	.	.	.	.	.	.	.	.	.	.	.	.	.
16A\	.	16G/ 16g	.	.	.	.	.	.	.	.	.	.	.	.	8ee\	8gg\
16G\JJ	.	16G/ 16g	.	.	.	.	.	.	.	.	.	.	.	.	.	.
16F\LL	.	16G/ 16g	.	(16ee\LL	4C/	-mo	4c\	-mo	4g\	-mo	16ee\LL	-mo	.	.	8cc\	8ee\
16E\	.	16G/ 16g	.	16gg\	.	.	.	.	.	.	16ff\	.	.	.	.	.
16D\	.	16G/ 16g	.	16aa\	.	.	.	.	.	.	16gg\	.	.	.	8ee\J	8gg\J
16C\JJ	.	16G/ 16gJJ	.	16gg\JJ)	.	.	.	.	.	.	16aa\JJ	.	.	.	.	.
!	!	!	!	!	!	!	!	!	!LO:LB:g=original	!	!	!	!	!	!	!
=45	=45	=45	=45	=45	=45	=45	=45	=45	=45	=45	=45	=45	=45	=45	=45	=45
!LO:TX:a:t=P:problem=mixed beam	!	!	!	!	!	!	!	!	!	!	!	!LO:N:vis=0	!	!	!	!
8GG/L	.	16d/ 16bnLL	.	16gg\LL	2G\	ju-	2Bn\	ju-	2dd\	ju-	(4gg\	ju-	1.r	.	4r	4r
.	.	16d/ 16bn	.	16gg\	.	.	.	.	.	.	.	.	.	.	.	.
8G\	.	16d/ 16bn	.	16gg\	.	.	.	.	.	.	.	.	.	.	.	.
.	.	16d/ 16bn	.	16gg\JJ	.	.	.	.	.	.	.	.	.	.	.	.
8GG/	.	16d/ 16bn	.	16ff\LL	.	.	.	.	.	.	4ff\)	.	.	.	4dd\	4ff\
.	.	16d/ 16bn	.	16ff\	.	.	.	.	.	.	.	.	.	.	.	.
8G\	.	16d/ 16bn	.	16ff\	.	.	.	.	.	.	.	.	.	.	.	.
.	.	16d/ 16bn	.	16ff\JJ	.	.	.	.	.	.	.	.	.	.	.	.
8GG/	.	16d/ 16bn	.	16dd\LL	4G\	-bi-	4d\	-bi-	4bn\	-bi-	4dd\	-bi-	.	.	4bn\	4dd\
.	.	16d/ 16bn	.	16dd\	.	.	.	.	.	.	.	.	.	.	.	.
8G\J	.	16d/ 16bn	.	16dd\	.	.	.	.	.	.	.	.	.	.	.	.
.	.	16d/ 16bnJJ	.	16dd\JJ	.	.	.	.	.	.	.	.	.	.	.	.
!LO:LB:g=original	!	!LO:LB:g=original	!	!LO:LB:g=original	!LO:LB:g=original	!	!	!	!	!	!	!	!	!	!	!LO:LB:g=original
=46	=46	=46	=46	=46	=46	=46	=46	=46	=46	=46	=46	=46	=46	=46	=46	=46
8AA/L	.	16d/ 16bnLL	.	2dd\	2G\	-la-	2d\	-la-	2b-\	-la-	2dd\	-la-	.	.	(8bn/L	8dd\L
.	.	16d/ 16bn	.	.	.	.	.	.	.	.	.	.	.	.	.	.
16BBn/L	.	16d/ 16bn	.	.	.	.	.	.	.	.	.	.	.	.	8g/)	8bn\
16D/JJ	.	16d/ 16bn	.	.	.	.	.	.	.	.	.	.	.	.	.	.
16G\LL	.	16d/ 16bn	.	.	.	.	.	.	.	.	.	.	.	.	(8b/	8dd\
16F#X\	.	16d/ 16bn	.	.	.	.	.	.	.	.	.	.	.	.	.	.
16E\	.	16d/ 16bn	.	.	.	.	.	.	.	.	.	.	.	.	8dd/)	8ff\
16D\JJ	.	16d/ 16bn	.	.	.	.	.	.	.	.	.	.	.	.	.	.
16C/LL	.	16d/ 16bn	.	16dd\LL	4GG/	-te	4d\	-te	4b-\	-te	4dd\	-te	.	.	(8b/	(8dd\
16BBn/	.	16d/ 16bn	.	16ff\	.	.	.	.	.	.	.	.	.	.	.	.
16AA/	.	16d/ 16bn	.	16gg\	.	.	.	.	.	.	.	.	.	.	8dd/J)	8ff\J)
16GG/JJ	.	16d/ 16bnJJ	.	16ff\JJ	.	.	.	.	.	.	.	.	.	.	.	.
*	*	*Xtremolo	*	*	*	*	*	*	*	*	*	*	*	*	*	*
!	!	!	!	!	!	!	!LO:LB:g=original	!	!	!	!	!	!	!	!	!
=47	=47	=47	=47	=47	=47	=47	=47	=47	=47	=47	=47	=47	=47	=47	=47	=47
4C/	.	8cc\L	.	8ee\L	2.r	.	2.r	.	2cc\	e-	2ee\	e-	4g\	.	4g/	4ee\
.	.	8ee\	.	8gg\	.	.	.	.	.	.	.	.	.	.	.	.
4r	.	8ee\	.	8gg\	.	.	.	.	.	.	.	.	4r	.	4r	4r
.	.	8ee\	.	8gg\	.	.	.	.	.	.	.	.	.	.	.	.
4r	.	8ee\	.	8gg\	.	.	.	.	4cc\	-ja	4ee\	-ja	4r	.	4r	4r
.	.	8ee\J	.	8gg\J	.	.	.	.	.	.	.	.	.	.	.	.
!	!	!	!	!	!	!	!	!	!	!	!LO:LB:g=original	!	!LO:LB:g=original	!	!	!
=48	=48	=48	=48	=48	=48	=48	=48	=48	=48	=48	=48	=48	=48	=48	=48	=48
8r	.	8dd\	.	2.gg\	2G\	cho-	2Bn\	cho-	2dd\	cho-	2ff\	cho-	2.r	.	8r	8r
8B\L	.	4dd\ 4ff	.	.	.	.	.	.	.	.	.	.	.	.	8dd\L	8ff\L
8B\	.	.	.	.	.	.	.	.	.	.	.	.	.	.	8dd\	8ff\
8B\	.	4dd\ 4ff	.	.	.	.	.	.	.	.	.	.	.	.	8dd\	8ff\
8B\	.	.	.	.	4G\	-ri	4B\	-ri	4dd\	-ri	4ff\	-ri	.	.	8dd\	8ff\
8B\J	.	8dd\ 8ff	.	.	.	.	.	.	.	.	.	.	.	.	8dd\J	8ff\J
!	!	!	!	!	!	!	!	!	!	!	!	!	!	!	!LO:LB:g=original	!
=49	=49	=49	=49	=49	=49	=49	=49	=49	=49	=49	=49	=49	=49	=49	=49	=49
!	!	!	!	!	!	!	!	!	!	!	!LO:TX:a:t=2	!	!	!	!	!
!	!	!	!	!	!	!	!	!	!LO:N:vis=0	!	!LO:N:vis=0	!	!	!	!	!
4c\	.	8ee\L	.	8gg\L	2c\	e-	2e\	e-	1.r	.	1.r	.	4g\	.	4g/	4ee\
.	.	8gg\	.	8ccc\	.	.	.	.	.	.	.	.	.	.	.	.
4C/	.	8ee\	.	8gg\	.	.	.	.	.	.	.	.	4r	.	4r	4r
.	.	8ee\	.	8gg\	.	.	.	.	.	.	.	.	.	.	.	.
4r	.	8ee\	.	8gg\	4c\	-ja	4e\	-ja	.	.	.	.	4r	.	4r	4r
.	.	8ee\J	.	8gg\J	.	.	.	.	.	.	.	.	.	.	.	.
=50	=50	=50	=50	=50	=50	=50	=50	=50	=50	=50	=50	=50	=50	=50	=50	=50
8r	.	8dd\	.	2.gg\	2d\	cho-	2f\	cho-	.	.	.	.	2.r	.	8r	8r
8Bn\L	.	4dd\ 4ff	.	.	.	.	.	.	.	.	.	.	.	.	8dd\L	8ff\L
8B\	.	.	.	.	.	.	.	.	.	.	.	.	.	.	8dd\	8ff\
8G\	.	4dd\ 4ff	.	.	.	.	.	.	.	.	.	.	.	.	8dd\	8ff\
8B\	.	.	.	.	4d\	-ri	4f\	-ri	.	.	.	.	.	.	8bn\	8dd\
8G\J	.	8dd\ 8ff	.	.	.	.	.	.	.	.	.	.	.	.	8dd\J	8ff\J
!LO:LB:g=original	!	!	!	!	!	!	!	!	!	!	!	!	!	!	!	!
=51	=51	=51	=51	=51	=51	=51	=51	=51	=51	=51	=51	=51	=51	=51	=51	=51
8c\L	.	4ee\	.	4gg\	8c\L	lau-	2.e\	lau-	2.cc\	lau-	2.gg\	lau-	4g\	.	[2.cc\	(4ee\
8G\	.	.	.	.	8G\	.	.	.	.	.	.	.	.	.	.	.
8E\	.	16cc\LL	.	(4ccc\	8E\	.	.	.	.	.	.	.	4r	.	.	4gg\
.	.	16cc\	.	.	.	.	.	.	.	.	.	.	.	.	.	.
8C\	.	16ee\	.	.	8C\J	.	.	.	.	.	.	.	.	.	.	.
.	.	16ee\JJ	.	.	.	.	.	.	.	.	.	.	.	.	.	.
8E\	.	16cc\LL	.	4bb-X\)	(8E\L	.	.	.	.	.	.	.	4r	.	.	4bb-X\)
.	.	16cc\	.	.	.	.	.	.	.	.	.	.	.	.	.	.
8C\J	.	16ee\	.	.	8C\J)	.	.	.	.	.	.	.	.	.	.	.
.	.	16ee\JJ	.	.	.	.	.	.	.	.	.	.	.	.	.	.
!	!	!LO:LB:g=original	!	!	!LO:LB:g=original	!	!	!	!	!	!	!	!	!	!	!
=52	=52	=52	=52	=52	=52	=52	=52	=52	=52	=52	=52	=52	=52	=52	=52	=52
8F\L	.	16cc\LL	.	(4gg#X\	4F\	-da-	(8e\L	-da-	4cc\	-da-	(8gg#X\L	-da-	8r	.	2.cc\]	(4gg#X\
.	.	16cc\	.	.	.	.	.	.	.	.	.	.	.	.	.	.
8C\	.	16ff\	.	.	.	.	8f\J)	.	.	.	8aa\J)	.	8a\L	.	.	.
.	.	16ff\JJ	.	.	.	.	.	.	.	.	.	.	.	.	.	.
8F\	.	16cc\LL	.	4aa\)	4F\	-te	4f\	-te	4cc\	-te	4aa\	-te	8a\	.	.	4aa\)
!	!	!LO:TX:a:t=rep	!	!	!	!	!	!	!	!	!	!	!	!	!	!
.	.	16cc\	.	.	.	.	.	.	.	.	.	.	.	.	.	.
8C\	.	16ff\	.	.	.	.	.	.	.	.	.	.	8a\	.	.	.
.	.	16ff\JJ	.	.	.	.	.	.	.	.	.	.	.	.	.	.
8F\	.	16cc\LL	.	4r	4r	.	4rF	.	4rA	.	4re	.	8a\	.	.	4r
.	.	16cc\	.	.	.	.	.	.	.	.	.	.	.	.	.	.
8C\J	.	16ff\	.	.	.	.	.	.	.	.	.	.	8a\J	.	.	.
.	.	16ff\JJ	.	.	.	.	.	.	.	.	.	.	.	.	.	.
!	!	!	!	!	!	!	!LO:LB:g=original	!	!LO:LB:g=original	!	!	!	!	!	!	!LO:LB:g=original
=53	=53	=53	=53	=53	=53	=53	=53	=53	=53	=53	=53	=53	=53	=53	=53	=53
!	!	!LO:SIC:o=:v:takt powtórzony repetycją	!	!	!	!	!	!	!	!	!	!	!	!	!	!
8F\L	.	16cc\LLyy	.	4aa\	(4F\	i-	(4A\	i-	2cc\	i-	2ff\	i-	4a\	.	2cc\	2.aa\
.	.	16cc\yy	.	.	.	.	.	.	.	.	.	.	.	.	.	.
8C\	.	16ff\yy	.	.	.	.	.	.	.	.	.	.	.	.	.	.
.	.	16ff\JJyy	.	.	.	.	.	.	.	.	.	.	.	.	.	.
8F\	.	16cc\LLyy	.	4ccc\	4f\)	.	4c\)	.	.	.	.	.	4r	.	.	.
.	.	16cc\yy	.	.	.	.	.	.	.	.	.	.	.	.	.	.
8C\	.	16ff\yy	.	.	.	.	.	.	.	.	.	.	.	.	.	.
.	.	16ff\JJyy	.	.	.	.	.	.	.	.	.	.	.	.	.	.
.	.	.	.	8qbbn/	.	.	.	.	.	.	.	.	.	.	.	.
8F\	.	16cc\LLyy	.	4aa\	4f\	-ta	4A\	-ta	4cc\	-ta	4ff\	-ta	4r	.	4r	.
.	.	16cc\yy	.	.	.	.	.	.	.	.	.	.	.	.	.	.
8C\J	.	16ff\yy	.	.	.	.	.	.	.	.	.	.	.	.	.	.
.	.	16ff\JJyy	.	.	.	.	.	.	.	.	.	.	.	.	.	.
!	!	!	!	!LO:LB:g=original	!	!	!	!	!	!	!	!	!	!	!	!
=54	=54	=54	=54	=54	=54	=54	=54	=54	=54	=54	=54	=54	=54	=54	=54	=54
8E\L	.	16cc\LL	.	(4ff#X\	4e\	De-	(8d#X\L	De-	4cc\	De-	(8ff#X\L	De-	8r	.	4r	4r
.	.	16cc\	.	.	.	.	.	.	.	.	.	.	.	.	.	.
8C\	.	16ee\	.	.	.	.	8e\J)	.	.	.	8gg\J)	.	8g\L	.	.	.
.	.	16ee\JJ	.	.	.	.	.	.	.	.	.	.	.	.	.	.
8E\	.	16cc\LL	.	4gg\)	4e\	-um	4e\	-um	4cc\	-um	4gg\	-um	8g\	.	(8ee\L	(8gg\L
.	.	16cc\	.	.	.	.	.	.	.	.	.	.	.	.	.	.
8C\	.	16ee\	.	.	.	.	.	.	.	.	.	.	8g\	.	8cc\)	8ee\)
.	.	16ee\JJ	.	.	.	.	.	.	.	.	.	.	.	.	.	.
8E\	.	16cc\LL	.	4r	4r	.	4r	.	4r	.	4r	.	8g\	.	(8ee\	(8gg\
.	.	16cc\	.	.	.	.	.	.	.	.	.	.	.	.	.	.
8C\J	.	16ee\	.	.	.	.	.	.	.	.	.	.	8g\J	.	8cc\J)	8ee\J)
.	.	16ee\JJ	.	.	.	.	.	.	.	.	.	.	.	.	.	.
!	!	!	!	!	!	!	!	!	!	!	!LO:LB:g=original	!	!LO:LB:g=original	!	!	!
=55	=55	=55	=55	=55	=55	=55	=55	=55	=55	=55	=55	=55	=55	=55	=55	=55
*	*	*tremolo	*	*	*	*	*	*	*	*	*	*	*	*	*	*
!LO:TX:a:t=P:problem=mixed beam	!	!	!	!	!	!	!	!	!	!	!	!	!LO:TX:a:t=7	!	!	!
!	!	!	!	!	!	!	!	!	!	!	!	!	!LO:N:vis=00	!	!	!
8BBn/L	6	16dd\LL	.	4.gg\	8Bn\	col	2dn\	col	2g\	col	2gg\	col	0.r	.	2dd\	2gg\
.	.	16dd\	.	.	.	.	.	.	.	.	.	.	.	.	.	.
8Bny\	.	16dd\	.	.	8B\	lau-	.	.	.	.	.	.	.	.	.	.
.	.	16dd\	.	.	.	.	.	.	.	.	.	.	.	.	.	.
8B\	.	16dd\	.	.	4B\	-da-	.	.	.	.	.	.	.	.	.	.
.	.	16dd\	.	.	.	.	.	.	.	.	.	.	.	.	.	.
8B\	.	16dd\	.	(16aa\LL	.	.	.	.	.	.	.	.	.	.	.	.
.	.	16dd\JJ	.	16gg\JJ)	.	.	.	.	.	.	.	.	.	.	.	.
8A\	6	16cc\LL	.	(16gg\LL	4B\	-te	4c\	lau-	4g\	lau-	4ff\	lau-	.	.	4cc\	4ff\
.	.	16cc\	.	16ff\	.	.	.	.	.	.	.	.	.	.	.	.
8A\J	.	16cc\	.	16ee\	.	.	.	.	.	.	.	.	.	.	.	.
.	.	16cc\JJ	.	16ff\JJ)	.	.	.	.	.	.	.	.	.	.	.	.
!	!	!	!	!	!	!	!	!	!	!	!	!	!	!	!LO:LB:g=original	!
=56	=56	=56	=56	=56	=56	=56	=56	=56	=56	=56	=56	=56	=56	=56	=56	=56
8G\L	6	16bn\LL	.	4.ee\	8G\	col	2Bn\	-da-	2g\	-da-	2ee\	-da-	.	.	2bn\	2ee\
.	.	16bn\	.	.	.	.	.	.	.	.	.	.	.	.	.	.
8G\	.	16bn\	.	.	8G\	lau-	.	.	.	.	.	.	.	.	.	.
.	.	16bn\	.	.	.	.	.	.	.	.	.	.	.	.	.	.
8G\	.	16bn\	.	.	4G\	-da-	.	.	.	.	.	.	.	.	.	.
.	.	16bn\	.	.	.	.	.	.	.	.	.	.	.	.	.	.
8G\	.	16bn\	.	(16ff\LL	.	.	.	.	.	.	.	.	.	.	.	.
.	.	16bn\JJ	.	16ee\JJ)	.	.	.	.	.	.	.	.	.	.	.	.
8F\	6	16a/LL	.	(16ee\LL	4F\	-te	4A\	-te	(8g\L	-te	4dd\	-te	.	.	4a\	4dd\
.	.	16a/	.	16dd\	.	.	.	.	.	.	.	.	.	.	.	.
8F\J	.	16a/	.	16cc\	.	.	.	.	8a\J)	.	.	.	.	.	.	.
.	.	16a/JJ	.	16dd\JJ)	.	.	.	.	.	.	.	.	.	.	.	.
!LO:LB:g=original	!	!	!	!	!LO:LB:g=original	!	!	!	!	!	!	!	!	!	!	!
=57	=57	=57	=57	=57	=57	=57	=57	=57	=57	=57	=57	=57	=57	=57	=57	=57
8E\L	6	16g/LL	.	4cc\	8E\	om-	8G/	om-	8g\	om-	8cc\	om-	.	.	4g/	4cc\
.	.	16g/	.	.	.	.	.	.	.	.	.	.	.	.	.	.
8E\	.	16g/	.	.	8E\	-nis	8G/	-nis	8g\	-nis	8cc\	-nis	.	.	.	.
.	.	16g/JJ	.	.	.	.	.	.	.	.	.	.	.	.	.	.
8F\	.	16a/LL	.	4cc\	4F\	ho-	4A/	ho-	(4a\	ho-	(4cc\	ho-	.	.	4a/	(4cc\
.	.	16a/	.	.	.	.	.	.	.	.	.	.	.	.	.	.
8F\	.	16a/	.	.	.	.	.	.	.	.	.	.	.	.	.	.
.	.	16a/JJ	.	.	.	.	.	.	.	.	.	.	.	.	.	.
.	.	.	.	8qqcc/	.	.	.	.	.	.	.	.	.	.	.	.
8G\	.	16G/ 16fLL	.	8bn\L	4G\	.	4F/	.	4g\)	.	4bn\)	.	.	.	4f/	4bn\)
.	.	16G/ 16f	.	.	.	.	.	.	.	.	.	.	.	.	.	.
8G\J	.	16G/ 16f	.	16a\L	.	.	.	.	.	.	.	.	.	.	.	.
.	.	16G/ 16fJJ	.	16b\JJ	.	.	.	.	.	.	.	.	.	.	.	.
!	!	!LO:LB:g=original	!	!	!	!	!LO:LB:g=original	!	!	!	!	!	!	!	!	!
=58	=58	=58	=58	=58	=58	=58	=58	=58	=58	=58	=58	=58	=58	=58	=58	=58
4C/	.	8e/L	.	(8cc\L	4C/	-mo	4E/	-mo	4g\	-mo	2cc\	-mo	.	.	4e/	4cc\
.	.	8d/	.	8bn\	.	.	.	.	.	.	.	.	.	.	.	.
4r	.	8e/	.	8cc\	4r	.	4r	.	4r	.	.	.	.	.	4r	4r
.	.	8g/	.	8dd\	.	.	.	.	.	.	.	.	.	.	.	.
4r	.	8cc/	.	8ee\	4r	.	4r	.	4r	.	4r	.	.	.	4r	4r
.	.	8d/J 8bn	.	8ff\J)	.	.	.	.	.	.	.	.	.	.	.	.
!	!	!	!	!LO:LB:g=original	!	!	!	!	!LO:LB:g=original	!	!	!	!	!	!	!
=59	=59	=59	=59	=59	=59	=59	=59	=59	=59	=59	=59	=59	=59	=59	=59	=59
*tremolo	*	*	*	*	*	*	*	*	*	*	*	*	*	*	*	*
!	!	!	!	!	!	!	!	!	!LO:TX:a:t=3	!	!	!	!	!	!	!
!	!	!	!	!	!	!	!	!	!LO:N:vis=0	!	!	!	!LO:N:vis=0	!	!	!
8Bn\L	6	16dd\LL	.	4.gg\	8BBn/	ju-	2d\	ju-	1.r	.	2gg\	ju-	1.r	.	2dd\	2gg\
.	.	16dd\	.	.	.	.	.	.	.	.	.	.	.	.	.	.
8Bn\	.	16dd\	.	.	8Bny\	-bi-	.	.	.	.	.	.	.	.	.	.
.	.	16dd\	.	.	.	.	.	.	.	.	.	.	.	.	.	.
8Bn\	.	16dd\	.	.	4B\	-la-	.	.	.	.	.	.	.	.	.	.
.	.	16dd\	.	.	.	.	.	.	.	.	.	.	.	.	.	.
8Bn\J	.	16dd\	.	(16aa\LL	.	.	.	.	.	.	.	.	.	.	.	.
.	.	16dd\JJ	.	16gg\JJ)	.	.	.	.	.	.	.	.	.	.	.	.
*Xtremolo	*	*	*	*	*	*	*	*	*	*	*	*	*	*	*	*
8A\L	6	16cc\LL	.	(16gg\LL	4A\	-te	4c\	-bi-	.	.	4ff\	-bi-	.	.	8dd\L	(8gg\L
.	.	16cc\	.	16ff\	.	.	.	.	.	.	.	.	.	.	.	.
8A\J	.	16cc\	.	16ee\	.	.	.	.	.	.	.	.	.	.	8cc\J	8ff\J)
.	.	16cc\JJ	.	16ff\JJ)	.	.	.	.	.	.	.	.	.	.	.	.
!	!	!	!	!	!	!	!	!	!	!	!	!	!	!	!	!LO:LB:g=original
=60	=60	=60	=60	=60	=60	=60	=60	=60	=60	=60	=60	=60	=60	=60	=60	=60
!LO:TX:a:t=P:problem=mixed beam	!	!	!	!	!	!	!	!	!	!	!	!	!	!	!	!
8GG/L	.	16bn\LL	.	4.ee\	8G\	ju-	2Bn\	-la-	.	.	2ee\	-la-	.	.	2bn\	2ee\
.	.	16bn\	.	.	.	.	.	.	.	.	.	.	.	.	.	.
8G\J	.	16bn\	.	.	8G\	-bi-	.	.	.	.	.	.	.	.	.	.
.	.	16bn\	.	.	.	.	.	.	.	.	.	.	.	.	.	.
!LO:TX:a:t=P:problem=mixed beam	!	!	!	!	!	!	!	!	!	!	!	!	!	!	!	!
8GG/L	.	16bn\	.	.	4G\	-la-	.	.	.	.	.	.	.	.	.	.
.	.	16bn\	.	.	.	.	.	.	.	.	.	.	.	.	.	.
8G\J	.	16bn\	.	16ff\LL	.	.	.	.	.	.	.	.	.	.	.	.
.	.	16bn\JJ	.	16ee\JJ	.	.	.	.	.	.	.	.	.	.	.	.
!LO:TX:a:t=P:problem=mixed beam	!	!	!	!	!	!	!	!	!	!	!	!	!	!	!	!
8GG/L	.	16a/LL	.	(16ee\LL	4F\	-te	4A\	-te	.	.	4dd\	-te	.	.	8b\L	8ee\L
.	.	16a/	.	16dd\	.	.	.	.	.	.	.	.	.	.	.	.
8F\J	.	16a/	.	16cc\	.	.	.	.	.	.	.	.	.	.	8a\J	8dd\J
.	.	16a/JJ	.	16dd\JJ)	.	.	.	.	.	.	.	.	.	.	.	.
!	!	!	!	!	!LO:LB:g=original	!	!	!	!	!	!	!	!	!	!	!
=61	=61	=61	=61	=61	=61	=61	=61	=61	=61	=61	=61	=61	=61	=61	=61	=61
8E\L	6	16g/LL	.	8cc\L	8E\	ju-	8G/	ju-	2.r	.	2.r	.	2.r	.	4g/	4cc\
.	.	16g/	.	.	.	.	.	.	.	.	.	.	.	.	.	.
8E\	.	16g/	.	8bn\	8E\	-bi-	8G/	-bi-	.	.	.	.	.	.	.	.
.	.	16g/JJ	.	.	.	.	.	.	.	.	.	.	.	.	.	.
8F\	.	16a/LL	.	8cc\	(4F\	-la-	4A/	-la-	.	.	.	.	.	.	4r	4r
.	.	16a/	.	.	.	.	.	.	.	.	.	.	.	.	.	.
8F\	.	16a/	.	8ee\J	.	.	.	.	.	.	.	.	.	.	.	.
.	.	16a/JJ	.	.	.	.	.	.	.	.	.	.	.	.	.	.
.	.	.	.	8qee/	.	.	.	.	.	.	.	.	.	.	.	.
8G\	.	16G/ 16fLL	.	8dd\L	4G\)	.	4F/	.	.	.	.	.	.	.	4f/	4dd\
.	.	16G/ 16f	.	.	.	.	.	.	.	.	.	.	.	.	.	.
8G\J	.	16G/ 16f	.	16cc\L	.	.	.	.	.	.	.	.	.	.	.	.
.	.	16G/ 16fJJ	.	16bn\JJ	.	.	.	.	.	.	.	.	.	.	.	.
!	!	!	!	!	!	!	!	!	!	!	!LO:LB:g=original	!	!	!	!LO:LB:g=original	!
=62	=62	=62	=62	=62	=62	=62	=62	=62	=62	=62	=62	=62	=62	=62	=62	=62
2.C/	.	8e/L	.	4cc\	4C/	-te	4E/	-te	4e\	la-	4cc\	la-	4g\	.	2e/	2cc\
.	.	8g/J	.	.	.	.	.	.	.	.	.	.	.	.	.	.
.	.	8cc\L	.	4ee\	4r	.	4r	.	4cc\	-u-	4ee\	-u-	4r	.	.	.
.	.	8g\J	.	.	.	.	.	.	.	.	.	.	.	.	.	.
.	.	8ee\L	.	4gg\	4r	.	4r	.	4ee\	-des	4gg\	-des	4r	.	4r	4r
.	.	8g\J	.	.	.	.	.	.	.	.	.	.	.	.	.	.
!LO:LB:g=original	!	!	!	!	!	!	!LO:LB:g=original	!	!	!	!	!	!	!	!	!
=63	=63	=63	=63	=63	=63	=63	=63	=63	=63	=63	=63	=63	=63	=63	=63	=63
4G\	.	16d/LL 16bn	.	2.ff\	4G\	e-	2Bn\	e-	2dd\	De-	2ff\	da-	4g\	.	4g/	4bn\
.	.	16d/ 16bn	.	.	.	.	.	.	.	.	.	.	.	.	.	.
.	.	16d/ 16bn	.	.	.	.	.	.	.	.	.	.	.	.	.	.
.	.	16d/ 16bn	.	.	.	.	.	.	.	.	.	.	.	.	.	.
8Bn\L	.	16d/ 16bn	.	.	8Bn\L	.	.	.	.	.	.	.	4r	.	4bn/	4dd\
.	.	16d/ 16bn	.	.	.	.	.	.	.	.	.	.	.	.	.	.
8G\	.	16d/ 16bn	.	.	8G\J	.	.	.	.	.	.	.	.	.	.	.
.	.	16d/ 16bn	.	.	.	.	.	.	.	.	.	.	.	.	.	.
8d\	.	16d/ 16bn	.	.	8d\L	-ja	4B\	-ja	4dd\	-um	4ff\	-te	4r	.	4dd\	4ff\
.	.	16d/ 16bn	.	.	.	.	.	.	.	.	.	.	.	.	.	.
8G\J	.	16d/ 16bn	.	.	8B\J	.	.	.	.	.	.	.	.	.	.	.
.	.	16d/JJ 16bn	.	.	.	.	.	.	.	.	.	.	.	.	.	.
=64	=64	=64	=64	=64	=64	=64	=64	=64	=64	=64	=64	=64	=64	=64	=64	=64
!	!	!	!	!	!	!	!	!	!	!	!	!	!LO:TX:a:t=2	!	!	!
!	!	!	!	!	!	!	!	!	!	!	!	!	!LO:N:vis=0	!	!	!
4c\	.	8cc\L	.	8ee\L	4c\	cho-	4G/	cho-	2cc\	col	2ee\	ju-	1.r	.	4g/	4ee\
.	.	8ee\J	.	8gg\	.	.	.	.	.	.	.	.	.	.	.	.
4C/	.	8ff\L	.	8aa\	4C/	-ri	4G/	-ri	.	.	.	.	.	.	4r	4r
.	.	8dd\J	.	8bbn\	.	.	.	.	.	.	.	.	.	.	.	.
!	!	!LO:LB:g=original	!	!	!	!	!	!	!	!	!	!	!	!	!	!
4r	.	8gg\L	.	8ccc\	4r	.	4r	.	4ee\	lau-	4gg\	-bi-	.	.	4r	4r
.	.	8ee\J	.	8gg\J	.	.	.	.	.	.	.	.	.	.	.	.
!	!	!	!	!LO:LB:g=original	!	!	!	!	!	!	!	!	!	!	!	!
=65	=65	=65	=65	=65	=65	=65	=65	=65	=65	=65	=65	=65	=65	=65	=65	=65
8G\L	.	16d/ 16bnLL	.	2.ff\	4G\	lau-	2Bn\	e-	2dd\	-da-	2ff\	-la-	.	.	8g/L	(8bn\L
.	.	16d/ 16bn	.	.	.	.	.	.	.	.	.	.	.	.	.	.
8A\	.	16d/ 16bn	.	.	.	.	.	.	.	.	.	.	.	.	8a/	8cc\
.	.	16d/ 16bn	.	.	.	.	.	.	.	.	.	.	.	.	.	.
8Bn\	.	16d/ 16bn	.	.	8Bn\L	.	.	.	.	.	.	.	.	.	8bn/	8dd\
.	.	16d/ 16bn	.	.	.	.	.	.	.	.	.	.	.	.	.	.
8c\	.	16d/ 16bn	.	.	8G\	.	.	.	.	.	.	.	.	.	8a/J	8cc\
.	.	16d/ 16bn	.	.	.	.	.	.	.	.	.	.	.	.	.	.
8d\	.	16d/ 16bn	.	.	8d\	.	4B\	-ja	4dd\	-te	4ff\	-te	.	.	8b\L	8dd\
.	.	16d/ 16bn	.	.	.	.	.	.	.	.	.	.	.	.	.	.
8G\J	.	16d/ 16bn	.	.	8B\J	.	.	.	.	.	.	.	.	.	8dd\J	8ff\J)
.	.	16d/ 16bnJJ	.	.	.	.	.	.	.	.	.	.	.	.	.	.
!	!	!	!	!	!LO:LB:g=original	!	!	!	!	!	!	!	!	!	!	!
=66	=66	=66	=66	=66	=66	=66	=66	=66	=66	=66	=66	=66	=66	=66	=66	=66
*	*	*Xtremolo	*	*Xtremolo	*	*	*	*	*	*	*	*	*	*	*	*
4c\	.	16cc\LL	.	16ee\LL	4c\	-da-	4G/	cho-	2cc\	om-	2ee\	ju-	4g\	.	4cc\	4ee\
.	.	16cc\	.	16ee\	.	.	.	.	.	.	.	.	.	.	.	.
.	.	16ee\	.	16gg\	.	.	.	.	.	.	.	.	.	.	.	.
.	.	16ee\JJ	.	16gg\JJ	.	.	.	.	.	.	.	.	.	.	.	.
4C/	.	16ff\LL	.	16aa\LL	4C/	-te	4G/	-ri	.	.	.	.	4r	.	4r	4r
.	.	16ff\	.	16aa\	.	.	.	.	.	.	.	.	.	.	.	.
.	.	16dd\	.	16bbn\	.	.	.	.	.	.	.	.	.	.	.	.
.	.	16dd\JJ	.	16bb\JJ	.	.	.	.	.	.	.	.	.	.	.	.
4r	.	16gg\LL	.	16ccc\LL	4r	.	4r	.	4ee\	-nis	4gg\	-bi-	4r	.	4r	4r
.	.	16gg\	.	16ccc\	.	.	.	.	.	.	.	.	.	.	.	.
.	.	16ee\	.	16gg\	.	.	.	.	.	.	.	.	.	.	.	.
.	.	16ee\JJ	.	16gg\JJ	.	.	.	.	.	.	.	.	.	.	.	.
!	!	!	!	!	!	!	!	!	!LO:LB:g=original	!	!	!	!	!	!LO:LB:g=original	!LO:LB:g=original
=67	=67	=67	=67	=67	=67	=67	=67	=67	=67	=67	=67	=67	=67	=67	=67	=67
*	*	*tremolo	*	*	*	*	*	*	*	*	*	*	*	*	*	*
16G\LL	.	16d/ 16bnLL	.	2.ff\	8G\L	lau-	2.Bn\	lau-	2dd\	ho-	2ff\	-la-	2.r	.	8dd\L	8ff\L
16F#X\	.	16d/ 16bn	.	.	.	.	.	.	.	.	.	.	.	.	.	.
16G\	.	16d/ 16bn	.	.	8A\	.	.	.	.	.	.	.	.	.	8cc\	(8ee\
16A\JJ	.	16d/ 16bn	.	.	.	.	.	.	.	.	.	.	.	.	.	.
16Bn\LL	.	16d/ 16bn	.	.	8Bn\	.	.	.	.	.	.	.	.	.	8bn\	8dd\
16A\	.	16d/ 16bn	.	.	.	.	.	.	.	.	.	.	.	.	.	.
16B\	.	16d/ 16bn	.	.	8c\	.	.	.	.	.	.	.	.	.	8dd\	8ff\)
16c\JJ	.	16d/ 16bn	.	.	.	.	.	.	.	.	.	.	.	.	.	.
8d\L	.	16d/ 16bn	.	.	8d\	.	.	.	4dd\	-mo	4ff\	-te	.	.	8b\	(8dd\
.	.	16d/ 16bn	.	.	.	.	.	.	.	.	.	.	.	.	.	.
8G\J	.	16d/ 16bn	.	.	8B\J	.	.	.	.	.	.	.	.	.	8dd\J	8ff\J)
.	.	16d/ 16bnJJ	.	.	.	.	.	.	.	.	.	.	.	.	.	.
!LO:LB:g=original	!	!	!	!	!	!	!	!	!	!	!LO:LB:g=original	!	!	!	!	!
=68	=68	=68	=68	=68	=68	=68	=68	=68	=68	=68	=68	=68	=68	=68	=68	=68
!LO:TX:a:t=P:problem=mixed beam	!	!	!	!	!	!	!	!	!	!	!LO:TX:a:t=5	!	!	!	!	!
!	!	!	!	!	!	!	!	!	!	!	!LO:N:vis=00	!	!	!	!	!
8c\L	.	16cc\LL	.	16ee\LL	4c\	-da-	2c\	-da-	4e\	ju-	0.r	.	4g\	.	2.cc\	4ee\
.	.	16cc\	.	16ee\	.	.	.	.	.	.	.	.	.	.	.	.
8C/	.	16cc\	.	16cc\	.	.	.	.	.	.	.	.	.	.	.	.
.	.	16cc\	.	16cc\JJ	.	.	.	.	.	.	.	.	.	.	.	.
8D/	.	16cc\	.	16ff\LL	4d\	.	.	.	4f\	.	.	.	4r	.	.	4ff\
.	.	16cc\	.	16ff\	.	.	.	.	.	.	.	.	.	.	.	.
8D/J	.	16cc\	.	16dd\	.	.	.	.	.	.	.	.	.	.	.	.
.	.	16cc\	.	16dd\JJ	.	.	.	.	.	.	.	.	.	.	.	.
8E\L	.	16cc\	.	16gg\LL	4e\	-te	4c\	-te	4g\	-bi-	.	.	4r	.	.	4gg\
.	.	16cc\	.	16gg\	.	.	.	.	.	.	.	.	.	.	.	.
8E\J	.	16cc\	.	16ee\	.	.	.	.	.	.	.	.	.	.	.	.
.	.	16cc\JJ	.	16ee\JJ	.	.	.	.	.	.	.	.	.	.	.	.
!	!	!	!	!	!	!	!LO:LB:g=original	!	!	!	!	!	!	!	!	!
=69	=69	=69	=69	=69	=69	=69	=69	=69	=69	=69	=69	=69	=69	=69	=69	=69
!	!	!	!	!	!	!	!	!	!	!	!	!	!LO:N:vis=0	!	!	!
8F\L	.	16cc\LL	.	16aa\LL	2F\	i-	(4c\	i-	4a\	-la-	.	.	1.r	.	4cc\	4aa\
.	.	16cc\	.	16aa\	.	.	.	.	.	.	.	.	.	.	.	.
8F\	.	16cc\	.	16ff\	.	.	.	.	.	.	.	.	.	.	.	.
.	.	16cc\JJ	.	16ff\JJ	.	.	.	.	.	.	.	.	.	.	.	.
8F\	4#	16dd\LL	.	16bbn\LL	.	.	4d\)	.	4bn\	.	.	.	.	.	4dd\	4bbn\
.	.	16dd\	.	16bb\	.	.	.	.	.	.	.	.	.	.	.	.
8F\J	2	16dd\	.	16gg\	.	.	.	.	.	.	.	.	.	.	.	.
.	.	16dd\JJ	.	16gg\JJ	.	.	.	.	.	.	.	.	.	.	.	.
8E\L	6	16cc\ 16eeLL	.	16ccc\LL	4E\	-ta	4e\	-ta	4cc\	-te	.	.	.	.	4ee\	4ccc\
.	.	16cc\ 16ee	.	16ccc\	.	.	.	.	.	.	.	.	.	.	.	.
8E\J	.	16cc\ 16ee	.	16gg\	.	.	.	.	.	.	.	.	.	.	.	.
.	.	16cc\ 16eeJJ	.	16gg\JJ	.	.	.	.	.	.	.	.	.	.	.	.
!	!	!	!	!LO:LB:g=original	!	!	!	!	!	!	!	!	!	!	!	!
=70	=70	=70	=70	=70	=70	=70	=70	=70	=70	=70	=70	=70	=70	=70	=70	=70
!LO:TX:a:t=P:problem=mixed beam	!	!	!	!	!	!	!	!	!	!	!	!	!	!	!	!
8F\L	.	16cc\LL	.	16aa\LL	4F\	De-	4c\	De-	8a\	ju-	.	.	.	.	8ff\L	8aa\L
.	.	16cc\	.	16aa\	.	.	.	.	.	.	.	.	.	.	.	.
8F\	.	16cc\	.	16ff\	.	.	.	.	8f\	-bi-	.	.	.	.	8dd\	8ff\
.	.	16cc\	.	16ff\JJ	.	.	.	.	.	.	.	.	.	.	.	.
8G\	.	16cc\	.	16gg\LL	2GT\	.	4e\	.	(4cc\	-la-	.	.	.	.	8ee\	8gg\
.	.	16cc\	.	16gg\	.	.	.	.	.	.	.	.	.	.	.	.
8G\	.	16cc\	.	16ee\	.	.	.	.	.	.	.	.	.	.	8cc\J	8ee\
.	.	16cc\JJ	.	16ee\JJ	.	.	.	.	.	.	.	.	.	.	.	.
*	*	*Xtremolo	*	*	*	*	*	*	*	*	*	*	*	*	*	*
8GG/	.	16a/LL	.	16ff\LL	.	.	4d\	.	4bn\)	.	.	.	.	.	8a/L	8ff\
.	.	16a/	.	16ff\	.	.	.	.	.	.	.	.	.	.	.	.
8GG/J	.	16f/	.	16dd\	.	.	.	.	.	.	.	.	.	.	8f/J	8dd\J
.	.	16f/JJ	.	16dd\JJ	.	.	.	.	.	.	.	.	.	.	.	.
!	!	!LO:LB:g=original	!	!	!LO:LB:g=original	!	!	!	!	!	!	!	!	!	!	!
=71	=71	=71	=71	=71	=71	=71	=71	=71	=71	=71	=71	=71	=71	=71	=71	=71
4C\	.	8e/	.	8cc\L	2C/	-um	2c\	-um	4e\	-te	.	.	4g\	.	4e/	4cc\
.	.	4e\ 4cc	.	8ccc\	.	.	.	.	.	.	.	.	.	.	.	.
4E\	.	.	.	8gg\	.	.	.	.	4r	.	.	.	4r	.	8ee\L	8gg\L
.	.	4e\ 4cc	.	8ee\J	.	.	.	.	.	.	.	.	.	.	8cc\J	8ee\J
.	.	.	.	8qgg/	.	.	.	.	.	.	.	.	.	.	.	8qgg/
4G\	.	.	.	8ff\L	4r	.	4r	.	4r	.	.	.	4r	.	8a/L	8ff\L
.	.	8d/ 8bn	.	16ee\L	.	.	.	.	.	.	.	.	.	.	8f/J	16ee\L
.	.	.	.	16dd\JJ	.	.	.	.	.	.	.	.	.	.	.	16dd\JJ
!	!	!	!	!	!	!	!	!	!LO:LB:g=original	!	!	!	!LO:LB:g=original	!	!LO:LB:g=original	!LO:LB:g=original
=72	=72	=72	=72	=72	=72	=72	=72	=72	=72	=72	=72	=72	=72	=72	=72	=72
!	!	!	!	!	!	!	!LO:TX:a:t=1	!	!	!	!	!	!	!	!LO:TX:a:t=P:problem=mixed beam	!
4c\	.	8e/ 8cc	.	16cc\LL	2.r	.	2.r	.	2.r	.	2.r	.	4g\	.	8e/L	8cc\L
.	.	.	.	16ccc\	.	.	.	.	.	.	.	.	.	.	.	.
.	.	4e/ 4cc	.	16bbn\	.	.	.	.	.	.	.	.	.	.	8ff\J	8aa\J
.	.	.	.	16aa\JJ	.	.	.	.	.	.	.	.	.	.	.	.
4r	.	.	.	8gg\L	.	.	.	.	.	.	.	.	4r	.	8ee\L	8gg\L
.	.	4e/ 4cc	.	8ee\J	.	.	.	.	.	.	.	.	.	.	8cc\J	8ee\J
.	.	.	.	8qgg/	.	.	.	.	.	.	.	.	.	.	.	8qgg/
4G\	.	.	.	8ff\L	.	.	.	.	.	.	.	.	4r	.	8a/L	8ff\L
.	.	8d/ 8bn	.	16ee\L	.	.	.	.	.	.	.	.	.	.	16g/L	16ee\L
.	.	.	.	16dd\JJ	.	.	.	.	.	.	.	.	.	.	16f/JJ	16dd\JJ
!LO:LB:g=original	!	!	!	!	!	!	!	!	!	!	!	!	!	!	!	!
=73	=73	=73	=73	=73	=73	=73	=73	=73	=73	=73	=73	=73	=73	=73	=73	=73
!	!	!	!	!	!	!	!	!	!	!	!	!	!LO:N:vis=00	!	!	!
8C\L	.	8e/ 8cc	.	4.cc\	2C/	lau-	2e\	Lau-	2g\	lau-	2cc\	lau-	0.r	.	2e/	2cc\
8G\	.	4e/ 4cc	.	.	.	.	.	.	.	.	.	.	.	.	.	.
8E\	.	.	.	.	.	.	.	.	.	.	.	.	.	.	.	.
8G\	.	4e/ 4cc	.	16cc\LL	.	.	.	.	.	.	.	.	.	.	.	.
.	.	.	.	16dd\JJ	.	.	.	.	.	.	.	.	.	.	.	.
8C\	.	.	.	16ee\LL	4E\	-des	4e\	-des	4g\	-des	4ee\	-des	.	.	4cc\	4ee\
.	.	.	.	16dd\	.	.	.	.	.	.	.	.	.	.	.	.
8G\J	.	8e/ 8cc	.	16ee\	.	.	.	.	.	.	.	.	.	.	.	.
.	.	.	.	16cc\JJ	.	.	.	.	.	.	.	.	.	.	.	.
!	!	!	!	!LO:LB:g=original	!	!	!	!	!	!	!	!	!	!	!	!
=74	=74	=74	=74	=74	=74	=74	=74	=74	=74	=74	=74	=74	=74	=74	=74	=74
*	*	*	*	*	*	*ij	*	*ij	*	*	*	*	*	*	*	*
8BBn\L	.	8g/ 8bn	.	2gg\	2G\	lau-	2d\	Lau-	2g\	lau-	2gg\	lau-	.	.	2dd\	2gg\
8G\	.	4g/ 4dd	.	.	.	.	.	.	.	.	.	.	.	.	.	.
8D\	.	.	.	.	.	.	.	.	.	.	.	.	.	.	.	.
8G\	.	4g/ 4b	.	.	.	.	.	.	.	.	.	.	.	.	.	.
8BB\	.	.	.	(16gg\LL	4Bn\	des	4d\	-des	4g\	-des	4ff\	-des	.	.	4dd\	8gg\L
.	.	.	.	16ff\	.	.	.	.	.	.	.	.	.	.	.	.
8G\J	.	8g/ 8b	.	16ee\	.	.	.	.	.	.	.	.	.	.	.	8ff\J
.	.	.	.	16ff\JJ)	.	.	.	.	.	.	.	.	.	.	.	.
*	*	*	*	*	*	*Xij	*	*Xij	*	*	*	*	*	*	*	*
!	!	!	!	!	!	!	!LO:LB:g=original	!	!	!	!	!	!	!	!	!
=75	=75	=75	=75	=75	=75	=75	=75	=75	=75	=75	=75	=75	=75	=75	=75	=75
!LO:TX:a:t=P:problem=mixed beam	!	!	!	!	!	!	!	!	!	!	!	!	!	!	!	!
8C\L	.	4g/	.	4ee\	4c\	da-	4c\	da-	(4g\	da-	(4ee\	da-	.	.	4g/	4ee\
8C\	.	.	.	.	.	.	.	.	.	.	.	.	.	.	.	.
8G\	.	4e/	.	4e\ 4cc	2GT\	.	4c\	.	4e\	.	4cc\	.	.	.	4ee\	4ccc\
8G\	.	.	.	.	.	.	.	.	.	.	.	.	.	.	.	.
8GG/	.	8G/L 8d	.	4d\ 4bn	.	.	4Bn\	.	4d\)	.	4bn\)	.	.	.	4dd\	4bbn\
8GG/J	.	8f/J	.	.	.	.	.	.	.	.	.	.	.	.	.	.
=76	=76	=76	=76	=76	=76	=76	=76	=76	=76	=76	=76	=76	=76	=76	=76	=76
!	!	!LO:TX:a:t=P:problem=mixed beam	!	!	!	!	!	!	!	!	!	!	!	!	!	!
8C\L	.	8e/L	.	2.e\ 2.cc	4C/	-te	4c\	-te	4e\	-te	4cc\	-te	.	.	8r	8r
8E\	3	16gg\L	.	.	.	.	.	.	.	.	.	.	.	.	8ee\L	8gg\L
.	.	16gg\JJ	.	.	.	.	.	.	.	.	.	.	.	.	.	.
!	!	!LO:LB:g=original	!	!	!	!	!	!	!	!	!	!	!	!	!	!
8F\	_	16aa\LL	.	.	4r	.	4r	.	4r	.	4r	.	.	.	8ff\	8aa\
.	.	16aa\	.	.	.	.	.	.	.	.	.	.	.	.	.	.
8E\	.	16gg\	.	.	.	.	.	.	.	.	.	.	.	.	8ee\	8gg\
.	.	16gg\JJ	.	.	.	.	.	.	.	.	.	.	.	.	.	.
8F\	.	16aa\LL	.	.	4r	.	4r	.	4r	.	4r	.	.	.	8ff\	8aa\
.	.	16aa\	.	.	.	.	.	.	.	.	.	.	.	.	.	.
8D\J	.	16ff\	.	.	.	.	.	.	.	.	.	.	.	.	8dd\J	8ff\J
.	x	16ff\JJ	.	.	.	.	.	.	.	.	.	.	.	.	.	.
!	!	!	!	!	!	!	!	!	!	!	!	!	!	!	!LO:LB:g=original	!
=77	=77	=77	=77	=77	=77	=77	=77	=77	=77	=77	=77	=77	=77	=77	=77	=77
8C\L	.	8cc\ 8ee	.	4.cc\	2c\	vo-	2G/	vo-	2e\	vo-	2cc\	vo-	4r	.	4cc\	4ee\
8G\	.	4cc\ 4ee	.	.	.	.	.	.	.	.	.	.	.	.	.	.
8E\	.	.	.	.	.	.	.	.	.	.	.	.	4r	.	4r	4r
8G\	.	4cc\ 4ee	.	16cc\LL	.	.	.	.	.	.	.	.	.	.	.	.
.	.	.	.	16dd\JJ	.	.	.	.	.	.	.	.	.	.	.	.
8C\	.	.	.	16ee\LL	4c\	-ce	4G/	-ce	4g\	.	4ee\	.	8g\L	.	4r	4r
.	.	.	.	16ff\	.	.	.	.	.	.	.	.	.	.	.	.
8G\J	.	16ee\LL	.	16gg\	.	.	.	.	.	.	.	.	8a\J	.	.	.
.	.	16ff\JJ	.	16aa\JJ	.	.	.	.	.	.	.	.	.	.	.	.
!	!	!	!	!	!LO:LB:g=original	!	!	!	!LO:LB:g=original	!	!	!	!	!	!	!LO:LB:g=original
=78	=78	=78	=78	=78	=78	=78	=78	=78	=78	=78	=78	=78	=78	=78	=78	=78
*	*	*	*	*	*	*ij	*	*ij	*	*	*	*	*	*	*	*
8C\L	6	16ee\LL	.	2bb-X\	2e\	vo-	2c\	vo-	2b-X\	.	2gg\	.	2b-\	.	2cc\	2bb-X\
.	7	16ee\	.	.	.	.	.	.	.	.	.	.	.	.	.	.
8c\	_	16gg\	.	.	.	.	.	.	.	.	.	.	.	.	.	.
.	.	16gg\JJ	.	.	.	.	.	.	.	.	.	.	.	.	.	.
8c\	.	16ee\LL	.	.	.	.	.	.	.	.	.	.	.	.	.	.
.	.	16ee\	.	.	.	.	.	.	.	.	.	.	.	.	.	.
8c\J	.	16gg\	.	.	.	.	.	.	.	.	.	.	.	.	.	.
.	.	16gg\JJ	.	.	.	.	.	.	.	.	.	.	.	.	.	.
.	.	.	.	8qaa/	.	.	.	.	.	.	.	.	.	.	.	8qqaa/
!LO:LB:g=original	!	!	!	!	!	!	!	!	!	!	!	!	!	!	!	!
*	*	*tremolo	*	*	*	*	*	*	*	*	*	*	*	*	*	*
8E\L	x	16cc\LL	.	8gg\L	4e\	ce	4c\	-ce	4g\	-ce	4ee\	-ce	4g\	.	4cc\	4gg\
.	.	16cc\	.	.	.	.	.	.	.	.	.	.	.	.	.	.
8E\J	.	16cc\	.	16ff\L	.	.	.	.	.	.	.	.	.	.	.	.
.	.	16cc\JJ	.	16gg\JJ	.	.	.	.	.	.	.	.	.	.	.	.
*	*	*	*	*	*	*Xij	*	*Xij	*	*	*	*	*	*	*	*
!	!	!	!	!	!	!	!	!	!	!	!LO:LB:g=original	!	!	!	!	!
=79	=79	=79	=79	=79	=79	=79	=79	=79	=79	=79	=79	=79	=79	=79	=79	=79
!LO:TX:a:t=P:problem=mixed beam	!	!	!	!	!	!	!	!	!	!	!	!	!	!	!	!
8F\L	.	16cc\LL	.	4aa\	4f\	ple-	4c\	ple-	4cc\	ple-	2ff\	ple-	4a\	.	4cc\	4aa\
.	.	16cc\	.	.	.	.	.	.	.	.	.	.	.	.	.	.
8F\	.	16cc\	.	.	.	.	.	.	.	.	.	.	.	.	.	.
.	.	16cc\JJ	.	.	.	.	.	.	.	.	.	.	.	.	.	.
8c\	.	16f/ 16aLL	.	4a\ 4ff	4c\	.	4A/	.	2cc\	.	.	.	4f\	.	4a/	4ff\
.	.	16f/ 16a	.	.	.	.	.	.	.	.	.	.	.	.	.	.
8c\	.	16f/ 16a	.	.	.	.	.	.	.	.	.	.	.	.	.	.
.	.	16f/ 16aJJ	.	.	.	.	.	.	.	.	.	.	.	.	.	.
8C/	.	16g/ 16b-XLL	.	4g\ 4cc 4ee	4C/	.	4G/	.	.	.	4ee\	.	4g\	.	4g/	4ee\
.	.	16g/ 16b-X	.	.	.	.	.	.	.	.	.	.	.	.	.	.
8C/J	.	16g/ 16b-X	.	.	.	.	.	.	.	.	.	.	.	.	.	.
.	.	16g/ 16b-XJJ	.	.	.	.	.	.	.	.	.	.	.	.	.	.
*	*	*Xtremolo	*	*	*	*	*	*	*	*	*	*	*	*	*	*
=80	=80	=80	=80	=80	=80	=80	=80	=80	=80	=80	=80	=80	=80	=80	=80	=80
8F\L	.	16a\LL	.	2.a\ 2.ff	2F\	-na	2A/	-na	4cc\	-na	2ff\	-na	2f\	.	8r	8r
.	.	16a\	.	.	.	.	.	.	.	.	.	.	.	.	.	.
8A\	.	16cc\	.	.	.	.	.	.	.	.	.	.	.	.	8a/L	8cc\L
.	.	16cc\JJ	.	.	.	.	.	.	.	.	.	.	.	.	.	.
8B-\	.	16dd\LL	.	.	.	.	.	.	4r	.	.	.	.	.	8b-X/	8dd\
.	.	16dd\	.	.	.	.	.	.	.	.	.	.	.	.	.	.
8c\	.	16ee\	.	.	.	.	.	.	.	.	.	.	.	.	8cc/J	8ee\
.	.	16ee\JJ	.	.	.	.	.	.	.	.	.	.	.	.	.	.
!	!	!LO:LB:g=original	!	!	!	!	!	!	!	!	!	!	!	!	!	!
8d\	.	16ff\LL	.	.	4r	.	4r	.	4r	.	4r	.	4r	.	8dd\L	8ff\
.	.	16ff\	.	.	.	.	.	.	.	.	.	.	.	.	.	.
8e\J	.	16gg\	.	.	.	.	.	.	.	.	.	.	.	.	8ee\J	8gg\J
.	.	16gg\JJ	.	.	.	.	.	.	.	.	.	.	.	.	.	.
!	!	!	!	!LO:PB:g=original	!	!	!LO:LB:g=original	!	!	!	!	!	!	!	!	!
=81	=81	=81	=81	=81	=81	=81	=81	=81	=81	=81	=81	=81	=81	=81	=81	=81
!	!	!	!	!	!	!	!	!	!	!	!	!	!LO:TX:a:t=8	!	!	!
!	!	!	!	!	!	!	!	!	!	!	!	!	!LO:N:vis=00	!	!	!
8f\L	.	8f/ 8ff	.	8aa\	4F\	fron-	4c\	fron-	4a\	fron-	4ff\	fron-	0.r	.	2.cc\	2.aa\
8F\	.	4f/ 4ee-X	.	4aa\	.	.	.	.	.	.	.	.	.	.	.	.
8F\	.	.	.	.	4f\	-te	4c\	-te	4a\	-te	4ff\	-te	.	.	.	.
8F\	.	4f/ 4ee-	.	4aa\	.	.	.	.	.	.	.	.	.	.	.	.
8E-X\	4_ 2_	.	.	.	4e-X\	se-	4c\	se-	4a\	se-	4ff\	se-	.	.	.	.
8E-\J	x	8f/ 8ee-	.	8aa\	.	.	.	.	.	.	.	.	.	.	.	.
=82	=82	=82	=82	=82	=82	=82	=82	=82	=82	=82	=82	=82	=82	=82	=82	=82
8D\L	6	8f/ 8dd	.	8bb-\	4d\	-re-	2d\	-re-	2b-\	-re-	2ff\	-re-	.	.	2.dd\	2.bb-\
8D\	.	4f/ 4dd	.	4bb-\	.	.	.	.	.	.	.	.	.	.	.	.
8C\	7	.	.	.	4c\	.	.	.	.	.	.	.	.	.	.	.
8C\	.	4f/ 4dd	.	4bb-\	.	.	.	.	.	.	.	.	.	.	.	.
8BB-\	.	.	.	.	4B-\	-na	4d\	-na	4b-\	-na	4ff\	-na	.	.	.	.
8BB-\J	.	8f/ 8dd	.	8bb-\	.	.	.	.	.	.	.	.	.	.	.	.
!LO:SIC:s:o=:v:brak dalszej części partii organów	!	!	!	!	!	!	!	!	!	!	!	!	!	!	!	!
!LO:LB:g=original	!	!	!	!	!LO:PB:g=original	!	!	!	!	!	!	!	!	!	!	!
=83	=83	=83	=83	=83	=83	=83	=83	=83	=83	=83	=83	=83	=83	=83	=83	=83
2.ryy	.	4ee-X\	.	[4ccc\	2F\	cun-	(4e-X\	cun-	2a\	cun-	2ee-X\	cun-	.	.	4ee-X\	4ccc\
.	.	8ee-\L	.	8ccc\L]	.	.	4c\)	.	.	.	.	.	.	.	4r	4r
.	.	8cc\J	.	8aa\	.	.	.	.	.	.	.	.	.	.	.	.
.	.	4cc\	.	8ff\	4A\	-cta	4c\	-cta	4f\	-cta	4cc\	-cta	.	.	(8a\L	8ff\L
.	.	.	.	8ee-X\J	.	.	.	.	.	.	.	.	.	.	8cc\J)	8ee-X\J
!	!	!	!	!	!	!	!	!	!LO:LB:g=original	!	!	!	!	!	!LO:PB:g=original	!
=84	=84	=84	=84	=84	=84	=84	=84	=84	=84	=84	=84	=84	=84	=84	=84	=84
*	*	*tremolo	*	*	*	*	*	*	*	*	*	*	*	*	*	*
2.rryy	.	16f\ 16ccLL	.	2ee\	2B-\	ce-	2c\	ce-	2f\	ce-	2ee-X\	ce-	.	.	2cc\	2ee\
.	.	16f\ 16cc	.	.	.	.	.	.	.	.	.	.	.	.	.	.
.	.	16f\ 16cc	.	.	.	.	.	.	.	.	.	.	.	.	.	.
.	.	16f\ 16cc	.	.	.	.	.	.	.	.	.	.	.	.	.	.
.	.	16f\ 16cc	.	.	.	.	.	.	.	.	.	.	.	.	.	.
.	.	16f\ 16cc	.	.	.	.	.	.	.	.	.	.	.	.	.	.
.	.	16f\ 16cc	.	.	.	.	.	.	.	.	.	.	.	.	.	.
.	.	16f\ 16ccJJ	.	.	.	.	.	.	.	.	.	.	.	.	.	.
.	.	16f\ 16b-LL	.	4dd\	4BB-/	-dant	4B-\	-dant	4f\	-dant	4dd\	-dant	.	.	4f/	4dd\
.	.	16f\ 16b-	.	.	.	.	.	.	.	.	.	.	.	.	.	.
.	.	16f\ 16b-	.	.	.	.	.	.	.	.	.	.	.	.	.	.
.	.	16f\ 16b-JJ	.	.	.	.	.	.	.	.	.	.	.	.	.	.
!	!	!	!	!	!	!	!	!	!	!	!LO:LB:g=original	!	!	!	!	!LO:LB:g=original
=85	=85	=85	=85	=85	=85	=85	=85	=85	=85	=85	=85	=85	=85	=85	=85	=85
.	.	.	.	8qgg/	.	.	.	.	.	.	.	.	.	.	.	.
!	!	!	!	!	!	!	!	!	!	!	!	!	!LO:N:vis=00	!	!	!
2.rryy	.	8dd\	.	8bbn\	4G\	fron-	4d\	fron-	4bn\	fron-	4gg\	fron-	0.r	.	2.dd\	2.bbn\
.	.	4dd\ 4ff	.	4bb\	.	.	.	.	.	.	.	.	.	.	.	.
.	.	.	.	.	4G\	-te	4d\	-te	4b\	-te	4gg\	-te	.	.	.	.
.	.	4dd\ 4ff	.	4bb\	.	.	.	.	.	.	.	.	.	.	.	.
.	.	.	.	.	4f\	se-	4d\	se-	4b\	se-	4gg\	se-	.	.	.	.
.	.	8dd\ 8ff	.	8bb\	.	.	.	.	.	.	.	.	.	.	.	.
=86	=86	=86	=86	=86	=86	=86	=86	=86	=86	=86	=86	=86	=86	=86	=86	=86
2.rryy	.	8g\ 8ee	.	8ccc\	(4e\	-re-	2en\	-re-	2cc\	-re-	2gg\	-re-	.	.	2.ee\	2.ccc\
.	.	4g\ 4ee	.	4ccc\	.	.	.	.	.	.	.	.	.	.	.	.
.	.	.	.	.	4d\)	.	.	.	.	.	.	.	.	.	.	.
.	.	4g\ 4ee	.	4ccc\	.	.	.	.	.	.	.	.	.	.	.	.
.	.	.	.	.	4c\	-na	4e\	-na	4cc\	-na	4gg\	-na	.	.	.	.
.	.	8g\ 8ee	.	8ccc\	.	.	.	.	.	.	.	.	.	.	.	.
!	!	!LO:PB:g=original	!	!LO:LB:g=original	!	!	!LO:LB:g=original	!	!	!	!	!	!	!	!	!
=87	=87	=87	=87	=87	=87	=87	=87	=87	=87	=87	=87	=87	=87	=87	=87	=87
2.rryy	.	4ff\	.	4ddd\	2G\	cunc-	(4f\	cunc-	2g\	cunc-	2ff\	cunc-	.	.	4ff\	4ddd\
.	.	8ff\L	.	8ddd\L	.	.	4d\)	.	.	.	.	.	.	.	4r	4r
.	.	8dd\J	.	8bbn\	.	.	.	.	.	.	.	.	.	.	.	.
.	.	4dd\	.	8gg\	4Bn\	-ta	4d\	-ta	4g\	-ta	4dd\	-ta	.	.	8bn\L	8gg\L
.	.	.	.	8ff\J	.	.	.	.	.	.	.	.	.	.	8dd\J	8ff\J
=88	=88	=88	=88	=88	=88	=88	=88	=88	=88	=88	=88	=88	=88	=88	=88	=88
2.rryy	.	16g\ 16ddLL	.	2ff\	2c\	ce-	2d\	ce-	2g\	ce-	2ff\	ce-	.	.	4dd\	2ff\
.	.	16g\ 16dd	.	.	.	.	.	.	.	.	.	.	.	.	.	.
.	.	16g\ 16dd	.	.	.	.	.	.	.	.	.	.	.	.	.	.
.	.	16g\ 16dd	.	.	.	.	.	.	.	.	.	.	.	.	.	.
.	.	16g\ 16dd	.	.	.	.	.	.	.	.	.	.	.	.	4g/	.
.	.	16g\ 16dd	.	.	.	.	.	.	.	.	.	.	.	.	.	.
.	.	16g\ 16dd	.	.	.	.	.	.	.	.	.	.	.	.	.	.
.	.	16g\ 16ddJJ	.	.	.	.	.	.	.	.	.	.	.	.	.	.
.	.	16g\ 16ccLL	.	4ee\	4C/	-dant	4c\	-dant	4g\	-dant	4ee\	-dant	.	.	4g/	4ee\
.	.	16g\ 16cc	.	.	.	.	.	.	.	.	.	.	.	.	.	.
.	.	16g\ 16cc	.	.	.	.	.	.	.	.	.	.	.	.	.	.
.	.	16g\ 16ccJJ	.	.	.	.	.	.	.	.	.	.	.	.	.	.
*	*	*Xtremolo	*	*	*	*	*	*	*	*	*	*	*	*	*	*
!	!	!	!	!	!LO:LB:g=original	!	!	!	!LO:LB:g=original	!	!	!	!	!	!	!
=89	=89	=89	=89	=89	=89	=89	=89	=89	=89	=89	=89	=89	=89	=89	=89	=89
!	!	!	!	!	!	!	!LO:TX:a:t=4	!	!	!	!	!	!	!	!	!
!	!	!	!	!	!	!	!LO:N:vis=00	!	!	!	!	!	!	!	!	!
2.rryy	.	16g/LL	.	8ee\	2e\	cunc-	0.r	.	2g\	cunc-	4cc\	nu-	2.g\	.	2.cc\	2.gg\
.	.	16cc/	.	.	.	.	.	.	.	.	.	.	.	.	.	.
.	.	16g/	.	4gg\	.	.	.	.	.	.	.	.	.	.	.	.
.	.	16cc/JJ	.	.	.	.	.	.	.	.	.	.	.	.	.	.
.	.	16g/LL	.	.	.	.	.	.	.	.	4cc\	-bi-	.	.	.	.
.	.	16cc/	.	.	.	.	.	.	.	.	.	.	.	.	.	.
.	.	16g/	.	4bb-X\	.	.	.	.	.	.	.	.	.	.	.	.
.	.	16cc/JJ	.	.	.	.	.	.	.	.	.	.	.	.	.	.
*	*	*rep	*	*	*	*	*	*	*	*	*	*	*	*	*	*
.	.	16g/LL	.	.	4e\	-ta	.	.	4g\	-ta	4cc\	-la	.	.	.	.
.	.	16cc/	.	.	.	.	.	.	.	.	.	.	.	.	.	.
.	.	16g/	.	8gg\	.	.	.	.	.	.	.	.	.	.	.	.
.	.	16cc/JJ	.	.	.	.	.	.	.	.	.	.	.	.	.	.
*	*	*Xrep	*	*	*	*	*	*	*	*	*	*	*	*	*	*
!	!	!	!	!	!	!	!	!	!	!	!	!	!LO:LB:g=original	!	!	!
=90	=90	=90	=90	=90	=90	=90	=90	=90	=90	=90	=90	=90	=90	=90	=90	=90
2.rryy	.	16a\LL	.	8ff\	2f\	ce-	.	.	2a\	ce-	4cc\	nu-	2.a\	.	2.cc\	2.aa\
.	.	16cc\	.	.	.	.	.	.	.	.	.	.	.	.	.	.
.	.	16a\	.	4aa\	.	.	.	.	.	.	.	.	.	.	.	.
.	.	16cc\JJ	.	.	.	.	.	.	.	.	.	.	.	.	.	.
*	*	*rep	*	*	*	*	*	*	*	*	*	*	*	*	*	*
.	.	16a\LL	.	.	.	.	.	.	.	.	4cc\	-bi-	.	.	.	.
.	.	16cc\	.	.	.	.	.	.	.	.	.	.	.	.	.	.
.	.	16a\	.	4ccc\	.	.	.	.	.	.	.	.	.	.	.	.
.	.	16cc\JJ	.	.	.	.	.	.	.	.	.	.	.	.	.	.
.	.	16a\LL	.	.	4F\	-dant	.	.	4a\	-dant	4cc\	-la	.	.	.	.
.	.	16cc\	.	.	.	.	.	.	.	.	.	.	.	.	.	.
.	.	16a\	.	8aa\	.	.	.	.	.	.	.	.	.	.	.	.
.	.	16cc\JJ	.	.	.	.	.	.	.	.	.	.	.	.	.	.
*	*	*Xrep	*	*	*	*	*	*	*	*	*	*	*	*	*	*
!	!	!	!	!	!	!	!	!	!	!	!LO:LB:g=original	!	!	!	!LO:LB:g=original	!
=91	=91	=91	=91	=91	=91	=91	=91	=91	=91	=91	=91	=91	=91	=91	=91	=91
2.rryy	.	16ee\LL	.	8gg\	4.c\	nu-	.	.	4.b-\	nu-	4ee\	nu-	2.b-\	.	2.ee\	2.bb-\
.	.	16gg\	.	.	.	.	.	.	.	.	.	.	.	.	.	.
.	.	16ee\	.	4bb-\	.	.	.	.	.	.	.	.	.	.	.	.
.	.	16gg\JJ	.	.	.	.	.	.	.	.	.	.	.	.	.	.
*	*	*rep	*	*	*	*	*	*	*	*	*	*	*	*	*	*
.	.	16ee\LL	.	.	.	.	.	.	.	.	4ee\	-bi-	.	.	.	.
.	.	16gg\	.	.	.	.	.	.	.	.	.	.	.	.	.	.
.	.	16ee\	.	4ddd\	8c\	-bi-	.	.	8b-\	-bi-	.	.	.	.	.	.
.	.	16gg\JJ	.	.	.	.	.	.	.	.	.	.	.	.	.	.
.	.	16ee\LL	.	.	4c\	-la	.	.	4b-\	-la	4ee\	-la	.	.	.	.
.	.	16gg\	.	.	.	.	.	.	.	.	.	.	.	.	.	.
.	.	16ee\	.	8bb-\	.	.	.	.	.	.	.	.	.	.	.	.
.	.	16gg\JJ	.	.	.	.	.	.	.	.	.	.	.	.	.	.
*	*	*Xrep	*	*	*	*	*	*	*	*	*	*	*	*	*	*
!	!	!LO:LB:g=original	!	!	!	!	!	!	!	!	!	!	!	!	!	!
=92	=92	=92	=92	=92	=92	=92	=92	=92	=92	=92	=92	=92	=92	=92	=92	=92
!	!	!	!	!	!	!	!	!	!LO:TX:a:t=2	!	!	!	!	!	!	!
!	!	!	!	!	!	!	!	!	!LO:N:vis=0	!	!LO:N:vis=0	!	!	!	!	!
2.rryy	.	4ff\	.	8aa\	2.r	.	.	.	1.r	.	1.r	.	4a\	.	4ff\	4aa\
.	.	.	.	4ccc\	.	.	.	.	.	.	.	.	.	.	.	.
.	.	4cc\ 4aa	.	.	.	.	.	.	.	.	.	.	4r	.	4r	4r
.	.	.	.	4ccc\	.	.	.	.	.	.	.	.	.	.	.	.
*	*	*Xtuplet	*	*	*	*	*	*	*	*	*	*	*	*	*	*
.	.	12cc\L 12aa	.	.	.	.	.	.	.	.	.	.	4r	.	4r	4r
.	.	12gg\	.	.	.	.	.	.	.	.	.	.	.	.	.	.
.	.	.	.	16ddd\LL	.	.	.	.	.	.	.	.	.	.	.	.
.	.	12bb-\J	.	.	.	.	.	.	.	.	.	.	.	.	.	.
.	.	.	.	16eee\JJ	.	.	.	.	.	.	.	.	.	.	.	.
!	!	!	!	!LO:LB:g=original	!	!	!	!	!	!	!	!	!	!	!	!LO:LB:g=original
=93	=93	=93	=93	=93	=93	=93	=93	=93	=93	=93	=93	=93	=93	=93	=93	=93
2.rryy	.	16aa\LL	.	(4fff\	2F\	cunc-	(4f\	cun-	.	.	.	.	4f\	.	4r	4r
.	.	16cc\	.	.	.	.	.	.	.	.	.	.	.	.	.	.
.	.	16cc\	.	.	.	.	.	.	.	.	.	.	.	.	.	.
.	.	16cc\JJ	.	.	.	.	.	.	.	.	.	.	.	.	.	.
*	*	*tremolo	*	*	*	*	*	*	*	*	*	*	*	*	*	*
.	.	16cc\LL	.	(4ccc\)	.	.	4c\)	.	.	.	.	.	4cc\	.	4aa\	4ccc\
.	.	16cc\	.	.	.	.	.	.	.	.	.	.	.	.	.	.
.	.	16cc\	.	.	.	.	.	.	.	.	.	.	.	.	.	.
.	.	16cc\	.	.	.	.	.	.	.	.	.	.	.	.	.	.
.	.	16cc\	.	4aa\)	4F\	-ta	4A\	-cta	.	.	.	.	4a\	.	4ff\	4aa\
.	.	16cc\	.	.	.	.	.	.	.	.	.	.	.	.	.	.
.	.	16cc\	.	.	.	.	.	.	.	.	.	.	.	.	.	.
.	.	16cc\JJ	.	.	.	.	.	.	.	.	.	.	.	.	.	.
!	!	!	!	!	!LO:LB:g=original	!	!	!	!	!	!	!	!	!	!	!
=94	=94	=94	=94	=94	=94	=94	=94	=94	=94	=94	=94	=94	=94	=94	=94	=94
2.rryy	.	16cc\LL	.	[2aa\	2F\	ce-	2c\	ce-	2a\	ce-	2ff\	cun-	2.a\	.	2ff\	2aa\
.	.	16cc\	.	.	.	.	.	.	.	.	.	.	.	.	.	.
.	.	16cc\	.	.	.	.	.	.	.	.	.	.	.	.	.	.
.	.	16cc\	.	.	.	.	.	.	.	.	.	.	.	.	.	.
.	.	16cc\	.	.	.	.	.	.	.	.	.	.	.	.	.	.
.	.	16cc\	.	.	.	.	.	.	.	.	.	.	.	.	.	.
.	.	16cc\	.	.	.	.	.	.	.	.	.	.	.	.	.	.
.	.	16cc\	.	.	.	.	.	.	.	.	.	.	.	.	.	.
.	.	16cc\	.	16aa\LL]	4F\	-dant	4c\	-dant	4a\	-dant	4ff\	-cta	.	.	4r	4r
.	.	16cc\	.	16bb-\	.	.	.	.	.	.	.	.	.	.	.	.
.	.	16cc\	.	16ccc\	.	.	.	.	.	.	.	.	.	.	.	.
.	.	16cc\JJ	.	16ddd\JJ	.	.	.	.	.	.	.	.	.	.	.	.
=95	=95	=95	=95	=95	=95	=95	=95	=95	=95	=95	=95	=95	=95	=95	=95	=95
*	*	*	*	*	*	*ij	*	*	*	*	*	*	*	*	*	*
2.rryy	.	16cc\ 16eeLL	.	(4ccc\	2c\	ce-	4c\	ce-	2.r	.	2.r	.	4cc\	.	4r	4r
.	.	16cc\ 16ee	.	.	.	.	.	.	.	.	.	.	.	.	.	.
.	.	16cc\ 16ee	.	.	.	.	.	.	.	.	.	.	.	.	.	.
.	.	16cc\ 16ee	.	.	.	.	.	.	.	.	.	.	.	.	.	.
.	.	16cc\ 16ee	.	4bb-\	.	.	4B-\	.	.	.	.	.	(4b-\	.	4gg\	4bb-\
.	.	16cc\ 16ee	.	.	.	.	.	.	.	.	.	.	.	.	.	.
.	.	16cc\ 16ee	.	.	.	.	.	.	.	.	.	.	.	.	.	.
.	.	16cc\ 16ee	.	.	.	.	.	.	.	.	.	.	.	.	.	.
.	.	16cc\ 16ee	.	4gg\)	4C/	-dant	4G/	-dant	.	.	.	.	4g\)	.	4ee\	4gg\
.	.	16cc\ 16ee	.	.	.	.	.	.	.	.	.	.	.	.	.	.
.	.	16cc\ 16ee	.	.	.	.	.	.	.	.	.	.	.	.	.	.
.	.	16cc\ 16eeJJ	.	.	.	.	.	.	.	.	.	.	.	.	.	.
*	*	*	*	*	*	*Xij	*	*	*	*	*	*	*	*	*	*
!	!	!	!	!	!	!	!LO:LB:g=original	!	!	!	!	!	!	!	!	!
=96	=96	=96	=96	=96	=96	=96	=96	=96	=96	=96	=96	=96	=96	=96	=96	=96
2.rryy	.	16cc\ 16eeLL	.	2.gg\	4.C/	nu-	4.c\	nu-	2g\	ce-	2ee\	ce-	2.g\	.	4cc\	4gg\
.	.	16cc\ 16ee	.	.	.	.	.	.	.	.	.	.	.	.	.	.
.	.	16cc\ 16ee	.	.	.	.	.	.	.	.	.	.	.	.	.	.
.	.	16cc\ 16ee	.	.	.	.	.	.	.	.	.	.	.	.	.	.
.	.	16cc\ 16ee	.	.	.	.	.	.	.	.	.	.	.	.	8cc\L	8gg\L
.	.	16cc\ 16ee	.	.	.	.	.	.	.	.	.	.	.	.	.	.
.	.	16cc\ 16ee	.	.	8C/	-bi-	8c\	-bi-	.	.	.	.	.	.	8gg\	8bb-\
.	.	16cc\ 16ee	.	.	.	.	.	.	.	.	.	.	.	.	.	.
.	.	16cc\ 16ee	.	.	4C/	-la	4c\	-la	4g\	-dant	4ee\	-dant	.	.	8ee\	8gg\
.	.	16cc\ 16ee	.	.	.	.	.	.	.	.	.	.	.	.	.	.
.	.	16cc\ 16ee	.	.	.	.	.	.	.	.	.	.	.	.	8gg\J	8bb-\J
.	.	16cc\ 16eeJJ	.	.	.	.	.	.	.	.	.	.	.	.	.	.
!	!	!	!	!	!	!	!	!	!LO:LB:g=original	!	!	!	!LO:LB:g=original	!	!LO:LB:g=original	!
=97	=97	=97	=97	=97	=97	=97	=97	=97	=97	=97	=97	=97	=97	=97	=97	=97
*	*	*	*	*tremolo	*	*	*	*	*	*	*	*	*	*	*	*
2.rryy	.	16ccc\LL	.	16fff\LL	2F\	cunc-	2.r	.	2.r	.	2.r	.	4f\	.	4r	4r
.	.	16ccc\	.	16fff\	.	.	.	.	.	.	.	.	.	.	.	.
.	.	16ccc\	.	16fff\	.	.	.	.	.	.	.	.	.	.	.	.
.	.	16ccc\JJ	.	16fff\JJ	.	.	.	.	.	.	.	.	.	.	.	.
.	.	16aa\LL	.	16ccc\LL	.	.	.	.	.	.	.	.	(4cc\	.	4aa\	4ccc\
.	.	16aa\	.	16ccc\	.	.	.	.	.	.	.	.	.	.	.	.
.	.	16aa\	.	16ccc\	.	.	.	.	.	.	.	.	.	.	.	.
.	.	16aa\JJ	.	16ccc\JJ	.	.	.	.	.	.	.	.	.	.	.	.
.	.	16ff\LL	.	16aa\LL	4F\	-ta	.	.	.	.	.	.	4a\)	.	4ff\	4aa\
.	.	16ff\	.	16aa\	.	.	.	.	.	.	.	.	.	.	.	.
.	.	16ff\	.	16aa\	.	.	.	.	.	.	.	.	.	.	.	.
.	.	16ff\JJ	.	16aa\JJ	.	.	.	.	.	.	.	.	.	.	.	.
!	!	!LO:LB:g=original	!	!	!	!	!	!	!	!	!	!	!	!	!	!
=98	=98	=98	=98	=98	=98	=98	=98	=98	=98	=98	=98	=98	=98	=98	=98	=98
2.rryy	.	16a\LL	.	2aa\	2F\	ce-	2c\	ce-	2a\	cun-	2ff\	cun-	2.a\	.	2cc\	2aa\
.	.	16ff\	.	.	.	.	.	.	.	.	.	.	.	.	.	.
.	.	16cc\	.	.	.	.	.	.	.	.	.	.	.	.	.	.
.	.	16ff\JJ	.	.	.	.	.	.	.	.	.	.	.	.	.	.
.	.	16a\LL	.	.	.	.	.	.	.	.	.	.	.	.	.	.
.	.	16ff\	.	.	.	.	.	.	.	.	.	.	.	.	.	.
.	.	16cc\	.	.	.	.	.	.	.	.	.	.	.	.	.	.
.	.	16ff\JJ	.	.	.	.	.	.	.	.	.	.	.	.	.	.
*	*	*rep	*	*	*	*	*	*	*	*	*	*	*	*	*	*
.	.	16a\LL	.	16aa\LL	4F\	-dant	4c\	-dant	4a\	-cta	4ff\	-cta	.	.	4r	4r
.	.	16ff\	.	16ccc\	.	.	.	.	.	.	.	.	.	.	.	.
.	.	16cc\	.	16ddd\	.	.	.	.	.	.	.	.	.	.	.	.
.	.	16ff\JJ	.	16ccc\JJ	.	.	.	.	.	.	.	.	.	.	.	.
*	*	*Xrep	*	*	*	*	*	*	*	*	*	*	*	*	*	*
!	!	!	!	!LO:LB:g=original	!LO:LB:g=original	!	!	!	!	!	!LO:LB:g=original	!	!	!	!	!
=99	=99	=99	=99	=99	=99	=99	=99	=99	=99	=99	=99	=99	=99	=99	=99	=99
*	*	*	*	*	*	*	*	*ij	*	*	*	*	*	*	*	*
2.rryy	.	2.cc\ 2.ee	.	16ccc\LL	2c\	ce-	2g\	ce-	2.r	.	2.r	.	4r	.	4r	4r
.	.	.	.	16ccc\	.	.	.	.	.	.	.	.	.	.	.	.
.	.	.	.	16ccc\	.	.	.	.	.	.	.	.	.	.	.	.
.	.	.	.	16ccc\JJ	.	.	.	.	.	.	.	.	.	.	.	.
.	.	.	.	16bb-\LL	.	.	.	.	.	.	.	.	(4b-\	.	4gg\	4bb-\
.	.	.	.	16bb-\	.	.	.	.	.	.	.	.	.	.	.	.
.	.	.	.	16bb-\	.	.	.	.	.	.	.	.	.	.	.	.
.	.	.	.	16bb-\JJ	.	.	.	.	.	.	.	.	.	.	.	.
.	.	.	.	16gg\LL	4c\	-dant	4g\	-dant	.	.	.	.	4g\)	.	4ee\	4gg\
.	.	.	.	16gg\	.	.	.	.	.	.	.	.	.	.	.	.
.	.	.	.	16gg\	.	.	.	.	.	.	.	.	.	.	.	.
.	.	.	.	16gg\JJ	.	.	.	.	.	.	.	.	.	.	.	.
*	*	*	*	*Xtremolo	*	*	*	*Xij	*	*	*	*	*	*	*	*
=100	=100	=100	=100	=100	=100	=100	=100	=100	=100	=100	=100	=100	=100	=100	=100	=100
2.rryy	.	2.cc\ 2.ee	.	2gg\	4.c\	nu-	4.c\	nu-	2g\	ce-	2ee\	ce-	2.g\	.	2cc\	2gg\
.	.	.	.	.	8c\	-bi-	8c\	-bi-	.	.	.	.	.	.	.	.
.	.	.	.	16gg\LL	4c\	-la	4c\	-la	4g\	-dant	4ee\	-dant	.	.	4r	4r
.	.	.	.	16aa\	.	.	.	.	.	.	.	.	.	.	.	.
.	.	.	.	16bb-\	.	.	.	.	.	.	.	.	.	.	.	.
.	.	.	.	16ccc\JJ	.	.	.	.	.	.	.	.	.	.	.	.
!	!	!	!	!	!	!	!	!	!	!	!	!	!	!	!	!LO:PB:g=original
=101	=101	=101	=101	=101	=101	=101	=101	=101	=101	=101	=101	=101	=101	=101	=101	=101
2.rryy	.	8ff\	.	8aa\	2F\	cunc-	2A\	cun-	2.r	.	2.r	.	4a\	.	4cc\	4aa\
.	.	4aa\	.	4ccc\	.	.	.	.	.	.	.	.	.	.	.	.
.	.	.	.	.	.	.	.	.	.	.	.	.	4r	.	4r	4r
.	.	4aa\	.	4ccc\	.	.	.	.	.	.	.	.	.	.	.	.
.	.	.	.	.	4F\	-ta	4A\	-cta	.	.	.	.	4r	.	4r	4r
.	.	8aa\	.	8ccc\	.	.	.	.	.	.	.	.	.	.	.	.
=102	=102	=102	=102	=102	=102	=102	=102	=102	=102	=102	=102	=102	=102	=102	=102	=102
!	!	!	!	!	!	!	!	!	!	!	!	!	!LO:N:vis=00	!	!	!
2.rryy	.	8gg\	.	2.ccc\	2E\	ce-	2B-\	ce-	4.g\	nu-	4.cc\	nu-	0.r	.	8r	8r
.	.	4bb-\	.	.	.	.	.	.	.	.	.	.	.	.	8gg\L	8bb-\L
.	.	.	.	.	.	.	.	.	.	.	.	.	.	.	8gg\	8bb-\
.	.	4bb-\	.	.	.	.	.	.	8g\	-bi-	8cc\	-bi-	.	.	8gg\	8bb-\
.	.	.	.	.	4E\	-dant	4B-\	-dant	4g\	-la	4cc\	-la	.	.	8cc\	8bb-\
.	.	8bb-\	.	.	.	.	.	.	.	.	.	.	.	.	8gg\J	8bb-\J
!	!	!LO:LB:g=original	!	!	!	!	!	!	!	!	!	!	!	!	!LO:LB:g=original	!
=103	=103	=103	=103	=103	=103	=103	=103	=103	=103	=103	=103	=103	=103	=103	=103	=103
!	!	!	!	!	!LO:TX:a:t=1	!	!	!	!	!	!	!	!	!	!	!
2.rryy	.	(8aa\L	.	(8ccc\L	2.r	.	2.r	.	2.r	.	2.r	.	.	.	4cc\	4aa\
.	.	8ccc\J)	.	8fff\J)	.	.	.	.	.	.	.	.	.	.	.	.
.	.	8aa'\L	.	8ccc`\L	.	.	.	.	.	.	.	.	.	.	4r	4r
.	.	8aa'\	.	8ccc`\	.	.	.	.	.	.	.	.	.	.	.	.
.	.	8aa'\	.	8ccc`\	.	.	.	.	.	.	.	.	.	.	4r	4r
.	.	8aa'\J	.	8ccc`\J	.	.	.	.	.	.	.	.	.	.	.	.
!	!	!	!	!	!LO:LB:g=original	!	!LO:PB:g=original	!	!LO:LB:g=original	!	!	!	!	!	!	!
=104	=104	=104	=104	=104	=104	=104	=104	=104	=104	=104	=104	=104	=104	=104	=104	=104
2.rryy	.	(8ee\L	.	2.ccc\	4.c\	nu-	4.B-\	nu-	4.g\	nu-	2ee\	cun-	.	.	8r	8r
.	.	8gg\J)	.	.	.	.	.	.	.	.	.	.	.	.	8gg\L	8bb-\L
.	.	(8bb-\L	.	.	.	.	.	.	.	.	.	.	.	.	8gg\	8bb-\
.	.	8gg\J)	.	.	8c\	-bi-	8B-\	-bi-	8g\	-bi-	.	.	.	.	8gg\	8bb-\
.	.	(8bb-\L	.	.	4c\	-la	4B-\	-la	4g\	-la	4ee\	-cta	.	.	8cc\	8gg\
.	.	8gg\J)	.	.	.	.	.	.	.	.	.	.	.	.	8gg\J	8bb-\J
!	!	!	!	!LO:LB:g=original	!	!	!	!	!	!	!	!	!	!	!	!
=105	=105	=105	=105	=105	=105	=105	=105	=105	=105	=105	=105	=105	=105	=105	=105	=105
2.rryy	.	16gg\LL	.	(2ccc\	2e\	ce-	2g\	ce-	4cc\	nu-	2ff\	ce-	.	.	2ff\	2ccc\
.	.	16gg\	.	.	.	.	.	.	.	.	.	.	.	.	.	.
.	.	16gg\	.	.	.	.	.	.	.	.	.	.	.	.	.	.
.	.	16gg\	.	.	.	.	.	.	.	.	.	.	.	.	.	.
.	.	16gg\	.	.	.	.	.	.	4cc\	-bi-	.	.	.	.	.	.
.	.	16gg\	.	.	.	.	.	.	.	.	.	.	.	.	.	.
.	.	16gg\	.	.	.	.	.	.	.	.	.	.	.	.	.	.
.	.	16gg\JJ	.	.	.	.	.	.	.	.	.	.	.	.	.	.
.	.	16ff\LL	.	16ccc\LL	4d\	-dant	4f\	-dant	4b-\	-la	4gg\	-dant	.	.	4ee\	4bb-\
.	.	16ff\	.	16bb-\)	.	.	.	.	.	.	.	.	.	.	.	.
.	.	16ff\	.	16aa\	.	.	.	.	.	.	.	.	.	.	.	.
.	.	16ff\JJ	.	16bb-\JJ	.	.	.	.	.	.	.	.	.	.	.	.
!	!	!	!	!	!	!	!	!	!	!	!LO:LB:g=original	!	!	!	!	!LO:LB:g=original
=106	=106	=106	=106	=106	=106	=106	=106	=106	=106	=106	=106	=106	=106	=106	=106	=106
*	*	*	*	*	*	*	*	*ij	*	*	*	*	*	*	*	*
!	!	!	!	!	!	!	!	!	!	!	!	!	!LO:N:vis=00	!	!	!
2.rryy	.	16ee\LL	.	2aa\	2c\	ce-	2e\	ce-	2a\	ce-	2ff\	ce-	0.r	.	2dd\	2aa\
.	.	16ee\	.	.	.	.	.	.	.	.	.	.	.	.	.	.
.	.	16ee\	.	.	.	.	.	.	.	.	.	.	.	.	.	.
.	.	16ee\	.	.	.	.	.	.	.	.	.	.	.	.	.	.
.	.	16ee\	.	.	.	.	.	.	.	.	.	.	.	.	.	.
.	.	16ee\	.	.	.	.	.	.	.	.	.	.	.	.	.	.
.	.	16ee\	.	.	.	.	.	.	.	.	.	.	.	.	.	.
.	.	16ee\JJ	.	.	.	.	.	.	.	.	.	.	.	.	.	.
.	.	16dd\LL	.	16aa\LL	4B-\	-dant	4d\	-dant	4g\	-dant	4gg\	-dant	.	.	4cc\	4gg\
.	.	16dd\	.	16gg\	.	.	.	.	.	.	.	.	.	.	.	.
.	.	16dd\	.	16ff\	.	.	.	.	.	.	.	.	.	.	.	.
.	.	16dd\JJ	.	16gg\JJ	.	.	.	.	.	.	.	.	.	.	.	.
*	*	*	*	*	*	*	*	*Xij	*	*	*	*	*	*	*	*
=107	=107	=107	=107	=107	=107	=107	=107	=107	=107	=107	=107	=107	=107	=107	=107	=107
*	*	*^	*	*	*	*	*	*	*	*	*	*	*	*	*	*
2.rryy	.	16cc\LL	2ryy	.	4ff\	(4A\	nu-	4c\	nu-	4a\	nu-	2ff\	nu-	.	.	4a/	4ff\
.	.	16cc\	.	.	.	.	.	.	.	.	.	.	.	.	.	.	.
.	.	16cc\	.	.	.	.	.	.	.	.	.	.	.	.	.	.	.
.	.	16cc\JJ	.	.	.	.	.	.	.	.	.	.	.	.	.	.	.
.	.	16dd\LL	.	.	4ff\	4B-\)	.	4d\	.	4b-\	-bi-	.	.	.	.	4a/	4ff\
.	.	16dd\	.	.	.	.	.	.	.	.	.	.	.	.	.	.	.
.	.	16dd\	.	.	.	.	.	.	.	.	.	.	.	.	.	.	.
.	.	16dd\JJ	.	.	.	.	.	.	.	.	.	.	.	.	.	.	.
.	.	.	.	.	8qff/	.	.	.	.	.	.	.	.	.	.	.	8qqff/
.	.	16b-/LL	16g\LL	.	8ee\L	4c\	-bi-	4B-\	-bi-	4g\	-la	4ee\	-bi-	.	.	4g/	8ee\L
.	.	16b-/	16g\	.	.	.	.	.	.	.	.	.	.	.	.	.	.
.	.	16b-/	16g\	.	16dd\L	.	.	.	.	.	.	.	.	.	.	.	16dd\L
.	.	16b-/JJ	16g\JJ	.	16ee\JJ	.	.	.	.	.	.	.	.	.	.	.	16ee\JJ
*	*	*v	*v	*	*	*	*	*	*	*	*	*	*	*	*	*	*
!	!	!LO:LB:g=original	!	!	!	!	!	!	!	!	!	!	!	!	!	!
=108	=108	=108	=108	=108	=108	=108	=108	=108	=108	=108	=108	=108	=108	=108	=108	=108
2.rryy	.	(8a/L	.	(8ff\L	4F\	-la	4A\	-la	2a\	-la	2ff\	-la	.	.	4a/	4ff\
.	.	8g/	.	8ee\	.	.	.	.	.	.	.	.	.	.	.	.
.	.	8a/	.	8ff\	4r	.	2r	.	.	.	.	.	.	.	4r	4r
.	.	8cc/J)	.	8gg\	.	.	.	.	.	.	.	.	.	.	.	.
.	.	8ff\L	.	8aa\	4r	.	.	.	4r	.	4r	.	.	.	4r	4r
.	.	8gg\J	.	8bb-\J)	.	.	.	.	.	.	.	.	.	.	.	.
!	!	!	!	!	!LO:LB:g=original	!	!	!	!	!	!	!	!	!	!LO:LB:g=original	!
=109	=109	=109	=109	=109	=109	=109	=109	=109	=109	=109	=109	=109	=109	=109	=109	=109
!	!	!	!	!	!	!	!LO:TX:a:t=4	!	!LO:TX:a:t=3	!	!LO:TX:a:t=6	!	!	!	!	!
!	!	!	!	!	!LO:N:vis=0	!	!LO:N:vis=00	!	!LO:N:vis=0	!	!LO:N:vis=00	!	!	!	!	!
2.rryy	.	16gg\LL	.	4.ccc\	1.r	.	0.r	.	1.r	.	0.r	.	.	.	2ff\	2ccc\
.	.	16gg\	.	.	.	.	.	.	.	.	.	.	.	.	.	.
.	.	16gg\	.	.	.	.	.	.	.	.	.	.	.	.	.	.
.	.	16gg\	.	.	.	.	.	.	.	.	.	.	.	.	.	.
.	.	16gg\	.	.	.	.	.	.	.	.	.	.	.	.	.	.
.	.	16gg\	.	.	.	.	.	.	.	.	.	.	.	.	.	.
.	.	16gg\	.	(16ddd\LL	.	.	.	.	.	.	.	.	.	.	.	.
.	.	16gg\JJ	.	16ccc\JJ)	.	.	.	.	.	.	.	.	.	.	.	.
.	.	16ff\LL	.	(16ccc\LL	.	.	.	.	.	.	.	.	.	.	4ee\	8ccc\L
.	.	16ff\	.	16bb-\	.	.	.	.	.	.	.	.	.	.	.	.
.	.	16ff\	.	16aa\	.	.	.	.	.	.	.	.	.	.	.	8bb-\J
.	.	16ff\JJ	.	16bb-\JJ)	.	.	.	.	.	.	.	.	.	.	.	.
!	!	!	!	!LO:LB:g=original	!	!	!	!	!	!	!	!	!	!	!	!
=110	=110	=110	=110	=110	=110	=110	=110	=110	=110	=110	=110	=110	=110	=110	=110	=110
!	!	!	!	!	!	!	!	!	!	!	!	!	!LO:N:vis=0	!	!	!
2.rryy	.	16ee\LL	.	4.aa\	.	.	.	.	.	.	.	.	1.r	.	2dd\	2aa\
.	.	16ee\	.	.	.	.	.	.	.	.	.	.	.	.	.	.
.	.	16ee\	.	.	.	.	.	.	.	.	.	.	.	.	.	.
.	.	16ee\	.	.	.	.	.	.	.	.	.	.	.	.	.	.
.	.	16ee\	.	.	.	.	.	.	.	.	.	.	.	.	.	.
.	.	16ee\	.	.	.	.	.	.	.	.	.	.	.	.	.	.
.	.	16ee\	.	(16bb-\LL	.	.	.	.	.	.	.	.	.	.	.	.
.	.	16ee\JJ	.	16aa\JJ)	.	.	.	.	.	.	.	.	.	.	.	.
.	.	16dd\LL	.	(16aa\LL	.	.	.	.	.	.	.	.	.	.	4cc\	8aa\L
.	.	16dd\	.	16gg\	.	.	.	.	.	.	.	.	.	.	.	.
.	.	16dd\	.	16ff\	.	.	.	.	.	.	.	.	.	.	.	8gg\J
.	.	16dd\JJ	.	16gg\JJ)	.	.	.	.	.	.	.	.	.	.	.	.
!	!	!	!	!	!	!	!	!	!	!	!	!	!	!	!	!LO:LB:g=original
=111	=111	=111	=111	=111	=111	=111	=111	=111	=111	=111	=111	=111	=111	=111	=111	=111
2.rryy	.	16cc\LL	.	8ff\L	2.r	.	.	.	2.r	.	.	.	.	.	4cc\	4ff\
.	.	16cc\	.	.	.	.	.	.	.	.	.	.	.	.	.	.
.	.	16cc\	.	(8ee\	.	.	.	.	.	.	.	.	.	.	.	.
.	.	16cc\JJ	.	.	.	.	.	.	.	.	.	.	.	.	.	.
.	.	16dd\LL	.	8ff\	.	.	.	.	.	.	.	.	.	.	4r	4r
.	.	16dd\	.	.	.	.	.	.	.	.	.	.	.	.	.	.
.	.	16dd\	.	8aa\J)	.	.	.	.	.	.	.	.	.	.	.	.
.	.	16dd\JJ	.	.	.	.	.	.	.	.	.	.	.	.	.	.
.	.	.	.	8qqaa/	.	.	.	.	.	.	.	.	.	.	.	.
.	.	16g/ 16b-LL	.	8gg\L	.	.	.	.	.	.	.	.	.	.	4b-\	4gg\
.	.	16g/ 16b-	.	.	.	.	.	.	.	.	.	.	.	.	.	.
.	.	16g/ 16b-	.	16ff\L	.	.	.	.	.	.	.	.	.	.	.	.
.	.	16g/ 16b-JJ	.	16ee\JJ	.	.	.	.	.	.	.	.	.	.	.	.
!	!	!	!	!	!	!	!	!	!LO:PB:g=original	!	!	!	!LO:PB:g=original	!	!	!
=112	=112	=112	=112	=112	=112	=112	=112	=112	=112	=112	=112	=112	=112	=112	=112	=112
2.rryy	.	16a/LL	.	4ff'\	4C\	ce-	.	.	4g\	ce-	.	.	4f\	.	4a/	4ff\
.	.	16a/	.	.	.	.	.	.	.	.	.	.	.	.	.	.
.	.	16a/	.	.	.	.	.	.	.	.	.	.	.	.	.	.
.	.	16a/JJ	.	.	.	.	.	.	.	.	.	.	.	.	.	.
.	.	16ff\LL	.	4aa'\	4F\	.	.	.	4a\	.	.	.	4a\	.	4r	4r
.	.	16ff\	.	.	.	.	.	.	.	.	.	.	.	.	.	.
.	.	16ff\	.	.	.	.	.	.	.	.	.	.	.	.	.	.
.	.	16ff\JJ	.	.	.	.	.	.	.	.	.	.	.	.	.	.
.	.	16aa\LL	.	4ccc'\	4A\	-dant	.	.	4b-\	-dant	.	.	4cc\	.	4r	4r
.	.	16aa\	.	.	.	.	.	.	.	.	.	.	.	.	.	.
.	.	16aa\	.	.	.	.	.	.	.	.	.	.	.	.	.	.
.	.	16aa\JJ	.	.	.	.	.	.	.	.	.	.	.	.	.	.
!	!	!LO:LB:g=original	!	!	!	!	!LO:LB:g=original	!	!	!	!	!	!	!	!	!
=113	=113	=113	=113	=113	=113	=113	=113	=113	=113	=113	=113	=113	=113	=113	=113	=113
!	!	!	!	!	!	!	!	!	!	!	!LO:N:vis=0	!	!	!	!	!
2.rryy	.	16cc\ 16ggLL	.	2.bb-\	4C/	nu-	4.c\	nu-	4e\	nu-	1.r	.	8r	.	4cc\	4ee\
.	.	16cc\ 16gg	.	.	.	.	.	.	.	.	.	.	.	.	.	.
.	.	16cc\ 16gg	.	.	.	.	.	.	.	.	.	.	4b-\	.	.	.
.	.	16cc\ 16gg	.	.	.	.	.	.	.	.	.	.	.	.	.	.
.	.	16cc\ 16gg	.	.	4E\	.	.	.	4g\	.	.	.	.	.	4ee\	4gg\
.	.	16cc\ 16gg	.	.	.	.	.	.	.	.	.	.	.	.	.	.
.	.	16cc\ 16gg	.	.	.	.	8c\	-bi-	.	.	.	.	4b-\	.	.	.
.	.	16cc\ 16gg	.	.	.	.	.	.	.	.	.	.	.	.	.	.
.	.	16cc\ 16gg	.	.	4G\	-bi-	4c\	-la	4b-\	-bi-	.	.	.	.	4gg\	4bb-\
.	.	16cc\ 16gg	.	.	.	.	.	.	.	.	.	.	.	.	.	.
.	.	16cc\ 16gg	.	.	.	.	.	.	.	.	.	.	8b-\	.	.	.
.	.	16cc\ 16ggJJ	.	.	.	.	.	.	.	.	.	.	.	.	.	.
=114	=114	=114	=114	=114	=114	=114	=114	=114	=114	=114	=114	=114	=114	=114	=114	=114
2.rryy	.	8ff\L	.	(8aa\L	4F\	-la	2c\	ce-	4a\	-la	.	.	4a\	.	4cc\	4aa\
.	.	8aa\	.	8ccc\	.	.	.	.	.	.	.	.	.	.	.	.
.	.	8bb-\	.	8ddd\	4r	.	.	.	4r	.	.	.	4r	.	4r	4r
.	.	8aa\J	.	8ccc\)	.	.	.	.	.	.	.	.	.	.	.	.
.	.	8ccc\L	.	(8fff\	4r	.	4c\	-dant	4r	.	.	.	4r	.	4r	4r
.	.	8aa\J	.	8ccc\J)	.	.	.	.	.	.	.	.	.	.	.	.
!	!	!	!	!LO:LB:g=original	!	!	!	!	!	!	!	!	!	!	!LO:LB:g=original	!
=115	=115	=115	=115	=115	=115	=115	=115	=115	=115	=115	=115	=115	=115	=115	=115	=115
2.rryy	.	16cc\ 16ggLL	.	2.bb-\	4C/	nu-	4.c\	nu-	4e\	nu-	4.ee\	nu-	8r	.	4cc\	4ee\
.	.	16cc\ 16gg	.	.	.	.	.	.	.	.	.	.	.	.	.	.
.	.	16cc\ 16gg	.	.	.	.	.	.	.	.	.	.	4b-\	.	.	.
.	.	16cc\ 16gg	.	.	.	.	.	.	.	.	.	.	.	.	.	.
.	.	16cc\ 16gg	.	.	4E\	.	.	.	4g\	.	.	.	.	.	4ee\	4gg\
.	.	16cc\ 16gg	.	.	.	.	.	.	.	.	.	.	.	.	.	.
.	.	16cc\ 16gg	.	.	.	.	8c\	-bi-	.	.	8ee\	-bi-	4b-\	.	.	.
.	.	16cc\ 16gg	.	.	.	.	.	.	.	.	.	.	.	.	.	.
.	.	16cc\ 16gg	.	.	4G\	-bi-	4c\	-la	4b-\	-bi-	4ee\	-la	.	.	4gg\	4bb-\
.	.	16cc\ 16gg	.	.	.	.	.	.	.	.	.	.	.	.	.	.
.	.	16cc\ 16gg	.	.	.	.	.	.	.	.	.	.	8b-\	.	.	.
.	.	16cc\ 16ggJJ	.	.	.	.	.	.	.	.	.	.	.	.	.	.
*	*	*Xtremolo	*	*	*	*	*	*	*	*	*	*	*	*	*	*
!	!	!	!	!	!LO:LB:g=original	!	!	!	!	!	!	!	!	!	!	!
=116	=116	=116	=116	=116	=116	=116	=116	=116	=116	=116	=116	=116	=116	=116	=116	=116
2.rryy	.	16ff\LL	.	16aa\LL	4F\	-la	2c\	ce-	4a\	-la	2.r	.	4a\	.	4cc\	4aa\
.	.	16ff\	.	16aa\	.	.	.	.	.	.	.	.	.	.	.	.
.	.	16aa\	.	16ccc\	.	.	.	.	.	.	.	.	.	.	.	.
.	.	16aa\JJ	.	16ccc\JJ	.	.	.	.	.	.	.	.	.	.	.	.
.	.	16bb-\LL	.	16ddd\LL	4r	.	.	.	4r	.	.	.	4r	.	4r	4r
.	.	16bb-\	.	16ddd\	.	.	.	.	.	.	.	.	.	.	.	.
.	.	16aa\	.	16ccc\	.	.	.	.	.	.	.	.	.	.	.	.
.	.	16aa\JJ	.	16ccc\JJ	.	.	.	.	.	.	.	.	.	.	.	.
.	.	16ccc\LL	.	16fff\LL	4r	.	4c\	-dant	4r	.	.	.	4r	.	4r	4r
.	.	16ccc\	.	16fff\	.	.	.	.	.	.	.	.	.	.	.	.
.	.	16aa\	.	16ccc\	.	.	.	.	.	.	.	.	.	.	.	.
.	.	16aa\JJ	.	16ccc\JJ	.	.	.	.	.	.	.	.	.	.	.	.
!	!	!	!	!	!	!	!	!	!LO:LB:g=original	!	!	!	!LO:LB:g=original	!	!	!LO:LB:g=original
=117	=117	=117	=117	=117	=117	=117	=117	=117	=117	=117	=117	=117	=117	=117	=117	=117
*	*	*tremolo	*	*	*	*	*	*	*	*	*	*	*	*	*	*
2.rryy	.	16cc\ 16ggLL	.	2.bb-\	4C/	nu-	4.c\	nu-	4e\	nu-	4.ee\	nu-	8r	.	8cc\L	8ee\L
.	.	16cc\ 16gg	.	.	.	.	.	.	.	.	.	.	.	.	.	.
.	.	16cc\ 16gg	.	.	.	.	.	.	.	.	.	.	4b-\	.	8ee\	8gg\
.	.	16cc\ 16gg	.	.	.	.	.	.	.	.	.	.	.	.	.	.
.	.	16cc\ 16gg	.	.	4E\	.	.	.	4g\	.	.	.	.	.	8gg\	8bb-\
.	.	16cc\ 16gg	.	.	.	.	.	.	.	.	.	.	.	.	.	.
.	.	16cc\ 16gg	.	.	.	.	8c\	-bi-	.	.	8ee\	-bi-	4b-\	.	8ee\	8gg\
.	.	16cc\ 16gg	.	.	.	.	.	.	.	.	.	.	.	.	.	.
.	.	16cc\ 16gg	.	.	4G\	-bi-	4c\	-la	4b-\	-bi-	4ee\	-la	.	.	8gg\	8bb-\
.	.	16cc\ 16gg	.	.	.	.	.	.	.	.	.	.	.	.	.	.
.	.	16cc\ 16gg	.	.	.	.	.	.	.	.	.	.	8b-\	.	8ee\J	8gg\J
.	.	16cc\ 16ggJJ	.	.	.	.	.	.	.	.	.	.	.	.	.	.
!	!	!	!	!	!	!	!LO:LB:g=original	!	!	!	!LO:PB:g=original	!	!	!	!	!
=118	=118	=118	=118	=118	=118	=118	=118	=118	=118	=118	=118	=118	=118	=118	=118	=118
2.rryy	.	16ff\LL	.	16aa\LL	4F\	-la	4F/	ce-	2a\	-la	2.r	.	4a\	.	2.ff\	4aa\
.	.	16ff\	.	16aa\	.	.	.	.	.	.	.	.	.	.	.	.
.	.	16ff\	.	16ff\	.	.	.	.	.	.	.	.	.	.	.	.
.	.	16ff\	.	16ff\JJ	.	.	.	.	.	.	.	.	.	.	.	.
.	.	16ff\	.	16bb-\LL	4r	.	4A\	.	.	.	.	.	4b-\	.	.	4bb-\
.	.	16ff\	.	16bb-\	.	.	.	.	.	.	.	.	.	.	.	.
.	.	16ff\	.	16gg\	.	.	.	.	.	.	.	.	.	.	.	.
.	.	16ff\	.	16gg\JJ	.	.	.	.	.	.	.	.	.	.	.	.
.	.	16ff\	.	16ccc\LL	4r	.	4c\	-dant	4r	.	.	.	4cc\	.	.	4ccc\
.	.	16ff\	.	16ccc\	.	.	.	.	.	.	.	.	.	.	.	.
.	.	16ff\	.	16aa\	.	.	.	.	.	.	.	.	.	.	.	.
.	.	16ff\JJ	.	16aa\JJ	.	.	.	.	.	.	.	.	.	.	.	.
!	!	!LO:LB:g=original	!	!	!	!	!	!	!	!	!	!	!	!	!	!
=119	=119	=119	=119	=119	=119	=119	=119	=119	=119	=119	=119	=119	=119	=119	=119	=119
2.rryy	.	16ff\LL	.	16ddd\LL	4B-\	nu-	4d\	nu-	4b-\	nu-	(4gg\	nu-	4r	.	4ff\	4ddd\
.	.	16ff\	.	16ddd\	.	.	.	.	.	.	.	.	.	.	.	.
.	.	16ff\	.	16bb-\	.	.	.	.	.	.	.	.	.	.	.	.
*	*	*Xtremolo	*	*	*	*	*	*	*	*	*	*	*	*	*	*
.	.	16ff\	.	16bb-\JJ	.	.	.	.	.	.	.	.	.	.	.	.
.	.	16ff\	.	16ccc\LL	4c\	.	4c\	.	4a\	.	4ff\)	.	8cc\L	.	8ff\L	8ccc\L
.	.	16ff\	.	16ccc\	.	.	.	.	.	.	.	.	.	.	.	.
.	.	16ff\	.	16aa\	.	.	.	.	.	.	.	.	8a\J	.	8cc\	8aa\
.	.	16ff\JJ	.	16aa\JJ	.	.	.	.	.	.	.	.	.	.	.	.
!	!	!	!	!LO:LB:g=original	!	!	!	!	!	!	!	!	!	!	!	!
.	.	16dd\LL	.	16bb-\LL	4C/	-bi-	4c\	-bi-	4g\	-bi-	4ee\	-bi-	8b-\L	.	8dd\	8bb-\
.	.	16dd\	.	16bb-\	.	.	.	.	.	.	.	.	.	.	.	.
.	.	16b-\	.	16gg\	.	.	.	.	.	.	.	.	8g\J	.	8b-\J	8gg\J
.	.	16b-\JJ	.	16gg\JJ	.	.	.	.	.	.	.	.	.	.	.	.
!	!	!	!	!	!	!	!	!	!	!	!	!	!	!	!LO:LB:g=original	!
=120	=120	=120	=120	=120	=120	=120	=120	=120	=120	=120	=120	=120	=120	=120	=120	=120
2.rryy	.	8a\	.	8ff\L	2F\	-la	2c\	-la	2a\	-la	4ff\	-la	4f\	.	4a/	4ff\
.	.	4a\ 4ff	.	8ccc\J	.	.	.	.	.	.	.	.	.	.	.	.
.	.	.	.	8aa\L	.	.	.	.	.	.	4r	.	4r	.	4cc\	4aa\
.	.	8a\L 8ff	.	8ccc\J	.	.	.	.	.	.	.	.	.	.	.	.
.	.	.	.	8qbb-/	.	.	.	.	.	.	.	.	.	.	.	.
.	.	8cc 8ee\	.	8bb-\L	4r	.	4r	.	4r	.	4r	.	4g\	.	8dd\L	8bb-\L
.	.	8cc 8ee\J	.	16aa\L	.	.	.	.	.	.	.	.	.	.	8b-\J	8gg\J
.	.	.	.	16gg\JJ	.	.	.	.	.	.	.	.	.	.	.	.
!	!	!	!	!	!	!	!	!	!	!	!	!	!	!	!	!LO:LB:g=original
=121	=121	=121	=121	=121	=121	=121	=121	=121	=121	=121	=121	=121	=121	=121	=121	=121
!	!	!	!	!	!LO:TX:a:t=3	!	!LO:TX:a:t=3	!	!	!	!	!	!LO:SIC:o=:v:wymazany takt	!	!	!
!	!	!	!	!	!LO:N:vis=0	!	!LO:N:vis=0	!	!LO:N:vis=0	!	!LO:N:vis=0	!	!	!	!	!
2.rryy	.	8a\ 8ff	.	8ff\L	1.r	.	1.r	.	1.r	.	1.r	.	4f\	.	4a/	4ff\
.	.	4a\ 4ff	.	8ccc\J	.	.	.	.	.	.	.	.	.	.	.	.
.	.	.	.	8aa\L	.	.	.	.	.	.	.	.	8a\L	.	4cc\	8aa\L
.	.	8a\L 8ff	.	16bb-\L	.	.	.	.	.	.	.	.	8cc\	.	.	16bb-\L
.	.	.	.	16ccc\JJ	.	.	.	.	.	.	.	.	.	.	.	16ccc\JJ
.	.	.	.	8qqccc/	.	.	.	.	.	.	.	.	.	.	.	8qqccc/
.	.	8cc\ 8ee	.	8bb-\L	.	.	.	.	.	.	.	.	8b-\	.	8dd\L	8bb-\L
.	.	8cc\J 8ee	.	16aa\L	.	.	.	.	.	.	.	.	8g\J	.	16cc\L	16aa\L
.	.	.	.	16gg\JJ	.	.	.	.	.	.	.	.	.	.	16b-\JJ	16gg\JJ
=122	=122	=122	=122	=122	=122	=122	=122	=122	=122	=122	=122	=122	=122	=122	=122	=122
2.rryy	.	4ff\	.	4ff\	.	.	.	.	.	.	.	.	4f\	.	8a/L	4ff\
.	.	.	.	.	.	.	.	.	.	.	.	.	.	.	8f/	.
.	.	4f/ 4a	.	4a\ 4ff	.	.	.	.	.	.	.	.	4f\	.	8a/	4ff\
.	.	.	.	.	.	.	.	.	.	.	.	.	.	.	8f/	.
.	.	4f/ 4a	.	4a\ 4ff	.	.	.	.	.	.	.	.	4f\	.	8a/	4ff\
.	.	.	.	.	.	.	.	.	.	.	.	.	.	.	8cc/J	.
=123	=123	=123	=123	=123	=123	=123	=123	=123	=123	=123	=123	=123	=123	=123	=123	=123
2.rryy	.	2.f/ 2.a	.	2.a\ 2.ff	2.r	.	2.r	.	2.r	.	2.r	.	2f\	.	2a/	2ff\
.	.	.	.	.	.	.	.	.	.	.	.	.	4r	.	4r	4r
==	==	==	==	==	==	==	==	==	==	==	==	==	==	==	==	==
*-	*-	*-	*-	*-	*-	*-	*-	*-	*-	*-	*-	*-	*-	*-	*-	*-
!!!system-decoration: [(s1,s2)](s3)[(s4,s5,s6,s7)][(s8,s9)]s10
!!!EED: Leszek Kubiak
!!!EEV: 2020-07-20
!!!ENC: Tomasz Grochalski
!!!END: 2020-03-02
!!!YEC: Copyright 2022 Narodowy Instytut Fryderyka Chopina (https://polishscores.org)
!!!YEM: License CC-BY-4.0 (https://creativecommons.org/licenses/by/4.0)
